Assets/HDRPipeline/Grades/CoolGrade_1.MarcieLogLog.cube
TITLE "Generated by Resolve"
LUT_3D_SIZE 5
0 0 0
0.249363 0.000167849 0.000167849
0.498741 0.000335698 0.000335698
0.748135 0.000503548 0.000503548
0.997513 0.000671397 0.000671397
0.025742 0.239734 0.025742
0.275105 0.239902 0.0259098
0.524498 0.24007 0.0260777
0.773877 0.240238 0.0262455
1 0.240406 0.0264134
0.0514839 0.479484 0.0514839
0.300862 0.479652 0.0516518
0.55024 0.47982 0.0518196
0.799619 0.479988 0.0519875
1 0.480156 0.0521553
0.0772412 0.719234 0.0772412
0.326604 0.719402 0.077409
0.575982 0.71957 0.0775769
0.82536 0.719738 0.0777447
1 0.719905 0.0779126
0.102983 0.958999 0.102983
0.352346 0.959167 0.103151
0.601724 0.959335 0.103319
0.851102 0.959503 0.103487
1 0.95967 0.103655
0 0 0.582895
0.223453 0 0.583062
0.472847 0 0.58323
0.722225 0 0.583398
0.971603 0 0.583566
0 0.213825 0.608637
0.24921 0.213993 0.608804
0.498589 0.21416 0.608972
0.747967 0.214328 0.60914
0.997345 0.214496 0.609308
0.0255894 0.45359 0.634379
0.274952 0.453758 0.634546
0.52433 0.453925 0.634714
0.773709 0.454093 0.634882
1 0.454261 0.635065
0.0513313 0.693339 0.660136
0.300694 0.693507 0.660304
0.550072 0.693675 0.660471
0.799451 0.693843 0.660639
1 0.694011 0.660807
0.0770733 0.933089 0.685878
0.326436 0.933257 0.686046
0.575814 0.933425 0.686213
0.825208 0.933593 0.686381
1 0.933761 0.686549
0 0 1
0.197559 0 1
0.446937 0 1
0.696315 0 1
0.945693 0 1
0 0.18793 1
0.223301 0.188098 1
0.472679 0.188266 1
0.722057 0.188434 1
0.971435 0.188602 1
0 0.42768 1
0.249042 0.427848 1
0.498421 0.428016 1
0.747799 0.428183 1
0.997192 0.428351 1
0.0254215 0.66743 1
0.274784 0.667597 1
0.524163 0.667765 1
0.773556 0.667933 1
1 0.668101 1
0.0511635 0.907179 1
0.300526 0.907347 1
0.54992 0.907515 1
0.799298 0.907683 1
1 0.907851 1
0 0 1
0.171649 0 1
0.421027 0 1
0.670405 0 1
0.919783 0 1
0 0.16202 1
0.197391 0.162188 1
0.446769 0.162356 1
0.696147 0.162524 1
0.945525 0.162692 1
0 0.40177 1
0.223133 0.401938 1
0.472511 0.402106 1
0.721889 0.402274 1
0.971283 0.402441 1
0 0.64152 1
0.248875 0.641688 1
0.498253 0.641855 1
0.747646 0.642023 1
0.997024 0.642191 1
0.0252537 0.88127 1
0.274632 0.881437 1
0.52401 0.881605 1
0.773388 0.881773 1
1 0.881941 1
0 0 1
0.145739 0 1
0.395117 0 1
0.644495 0 1
0.893874 0 1
0 0.13611 1
0.171481 0.136278 1
0.420859 0.136446 1
0.670237 0.136614 1
0.919631 0.136782 1
0 0.37586 1
0.197223 0.376028 1
0.446601 0.376196 1
0.695994 0.376364 1
0.945373 0.376532 1
0 0.61561 1
0.222965 0.615778 1
0.472358 0.615946 1
0.721736 0.616114 1
0.971115 0.616281 1
0 0.85536 1
0.248722 0.855528 1
0.4981 0.855695 1
0.747478 0.855863 1
0.996857 0.856031 1
