Assets/HDRPipeline/Grades/CoolGrade_1.MarcieLogLog.cube
TITLE "Generated by Resolve"
LUT_3D_SIZE 9
0 0 0
0.124681 9.15541e-05 9.15541e-05
0.249363 0.000167849 0.000167849
0.37406 0.000259403 0.000259403
0.498741 0.000335698 0.000335698
0.623438 0.000427253 0.000427253
0.748135 0.000503548 0.000503548
0.872816 0.000595102 0.000595102
0.997513 0.000671397 0.000671397
0.0128786 0.11986 0.0128786
0.137545 0.119951 0.0129549
0.262242 0.120027 0.0130465
0.386923 0.120119 0.0131228
0.51162 0.120195 0.0132143
0.636316 0.120287 0.0132906
0.760998 0.120363 0.0133822
0.885695 0.120455 0.0134585
1 0.120531 0.01355
0.025742 0.239734 0.025742
0.150423 0.239826 0.0258335
0.275105 0.239902 0.0259098
0.399802 0.239994 0.0260014
0.524498 0.24007 0.0260777
0.64918 0.240162 0.0261692
0.773877 0.240238 0.0262455
0.898558 0.24033 0.0263371
1 0.240406 0.0264134
0.0386206 0.359609 0.0386206
0.163287 0.359701 0.0386969
0.287984 0.359777 0.0387884
0.41268 0.359869 0.0388647
0.537362 0.359945 0.0389563
0.662058 0.360037 0.0390326
0.78674 0.360113 0.0391241
0.911437 0.360204 0.0392004
1 0.360281 0.039292
0.0514839 0.479484 0.0514839
0.176165 0.479576 0.0515755
0.300862 0.479652 0.0516518
0.425544 0.479744 0.0517433
0.55024 0.47982 0.0518196
0.674922 0.479912 0.0519112
0.799619 0.479988 0.0519875
0.924315 0.480079 0.052079
1 0.480156 0.0521553
0.0643626 0.599359 0.0643626
0.189044 0.599451 0.0644388
0.313726 0.599527 0.0645304
0.438422 0.599619 0.064622
0.563104 0.599695 0.0646982
0.6878 0.599786 0.0647898
0.812497 0.599863 0.0648661
0.937179 0.599954 0.0649577
1 0.600031 0.0650339
0.0772412 0.719234 0.0772412
0.201907 0.719326 0.0773175
0.326604 0.719402 0.077409
0.451286 0.719493 0.0774853
0.575982 0.71957 0.0775769
0.700679 0.719661 0.0776532
0.82536 0.719738 0.0777447
0.950057 0.719829 0.077821
1 0.719905 0.0779126
0.0901045 0.839109 0.0901045
0.214786 0.8392 0.0901961
0.339467 0.839277 0.0902724
0.464164 0.839368 0.0903639
0.588861 0.83946 0.0904402
0.713542 0.839536 0.0905318
0.838239 0.839628 0.0906081
0.962921 0.839704 0.0906996
1 0.839796 0.0907759
0.102983 0.958999 0.102983
0.227649 0.959075 0.103059
0.352346 0.959167 0.103151
0.477043 0.959243 0.103227
0.601724 0.959335 0.103319
0.726421 0.959411 0.103395
0.851102 0.959503 0.103487
0.975799 0.959579 0.103563
1 0.95967 0.103655
0 0 0.291432
0.111727 0 0.291508
0.236408 0 0.2916
0.361105 0 0.291676
0.485801 0 0.291768
0.610483 0 0.291844
0.73518 0 0.291936
0.859861 0 0.292012
0.984558 0 0.292103
0 0.106905 0.304295
0.12459 0.106996 0.304387
0.249287 0.107073 0.304463
0.373968 0.107164 0.304555
0.498665 0.10724 0.304631
0.623362 0.107332 0.304723
0.748043 0.107408 0.304799
0.87274 0.1075 0.304891
0.997421 0.107576 0.304967
0.0127871 0.22678 0.317174
0.137469 0.226871 0.317266
0.262165 0.226947 0.317342
0.386847 0.227039 0.317433
0.511543 0.227115 0.31751
0.636225 0.227207 0.317601
0.760922 0.227283 0.317678
0.885618 0.227375 0.317769
1 0.227451 0.317845
0.0256657 0.346654 0.330053
0.150347 0.346746 0.330129
0.275029 0.346822 0.33022
0.399725 0.346914 0.330297
0.524407 0.34699 0.330388
0.649104 0.347082 0.330465
0.7738 0.347158 0.330556
0.898482 0.34725 0.330632
1 0.347326 0.330724
0.0385443 0.466529 0.342916
0.16321 0.466621 0.343008
0.287907 0.466697 0.343084
0.412589 0.466789 0.343175
0.537285 0.466865 0.343252
0.661982 0.466957 0.343343
0.786664 0.467048 0.34342
0.91136 0.467124 0.343511
1 0.467216 0.343587
0.0514076 0.586419 0.355795
0.176089 0.586496 0.355871
0.300771 0.586587 0.355962
0.425467 0.586664 0.356039
0.550164 0.586755 0.35613
0.674846 0.586831 0.356207
0.799542 0.586923 0.356298
0.924224 0.586999 0.356374
1 0.587091 0.356466
0.0642863 0.706294 0.368658
0.188952 0.706371 0.36875
0.313649 0.706462 0.368826
0.438346 0.706538 0.368917
0.563027 0.70663 0.369009
0.687724 0.706706 0.369085
0.812406 0.706798 0.369177
0.937102 0.706874 0.369253
1 0.706966 0.369345
0.0771496 0.826169 0.381537
0.201831 0.826246 0.381628
0.326528 0.826337 0.381704
0.451209 0.826413 0.381796
0.575906 0.826505 0.381872
0.700587 0.826581 0.381964
0.825284 0.826673 0.38204
0.949981 0.826749 0.382132
1 0.826841 0.382208
0.0900282 0.946044 0.394415
0.21471 0.94612 0.394491
0.339391 0.946212 0.394583
0.464088 0.946288 0.394659
0.588769 0.94638 0.394751
0.713466 0.946456 0.394827
0.838163 0.946548 0.394919
0.962844 0.946624 0.394995
1 0.946715 0.395087
0 0 0.582895
0.0987716 0 0.582986
0.223453 0 0.583062
0.34815 0 0.583154
0.472847 0 0.58323
0.597528 0 0.583322
0.722225 0 0.583398
0.846906 0 0.58349
0.971603 0 0.583566
0 0.0939498 0.595773
0.111635 0.0940414 0.59585
0.236332 0.0941176 0.595941
0.361028 0.0942092 0.596017
0.48571 0.0942855 0.596109
0.610407 0.094377 0.596185
0.735088 0.0944533 0.596277
0.859785 0.0945449 0.596353
0.984482 0.0946212 0.596445
0 0.213825 0.608637
0.124514 0.213916 0.608728
0.24921 0.213993 0.608804
0.373892 0.214084 0.608896
0.498589 0.21416 0.608972
0.62327 0.214252 0.609064
0.747967 0.214328 0.60914
0.872663 0.21442 0.609232
0.997345 0.214496 0.609308
0.0127108 0.3337 0.621515
0.137392 0.333791 0.621592
0.262074 0.333867 0.621683
0.38677 0.333959 0.621759
0.511452 0.334035 0.621851
0.636149 0.334127 0.621927
0.760845 0.334218 0.622019
0.885527 0.334295 0.622095
1 0.334386 0.622187
0.0255894 0.45359 0.634379
0.150256 0.453666 0.63447
0.274952 0.453758 0.634546
0.399634 0.453834 0.634638
0.52433 0.453925 0.634714
0.649027 0.454002 0.634806
0.773709 0.454093 0.634882
0.898405 0.45417 0.634974
1 0.454261 0.635065
0.0384527 0.573465 0.647257
0.163134 0.573541 0.647349
0.287816 0.573632 0.647425
0.412512 0.573709 0.647517
0.537209 0.5738 0.647593
0.661891 0.573877 0.647684
0.786587 0.573968 0.647761
0.911269 0.574044 0.647852
1 0.574136 0.647929
0.0513313 0.693339 0.660136
0.175998 0.693416 0.660212
0.300694 0.693507 0.660304
0.425391 0.693584 0.66038
0.550072 0.693675 0.660471
0.674769 0.693751 0.660548
0.799451 0.693843 0.660639
0.924147 0.693919 0.660716
1 0.694011 0.660807
0.0641947 0.813214 0.672999
0.188876 0.813291 0.673091
0.313573 0.813382 0.673167
0.438254 0.813458 0.673259
0.562951 0.81355 0.673335
0.687633 0.813626 0.673426
0.812329 0.813718 0.673503
0.937026 0.813794 0.673594
1 0.813886 0.673671
0.0770733 0.933089 0.685878
0.201755 0.933165 0.685954
0.326436 0.933257 0.686046
0.451133 0.933333 0.686122
0.575814 0.933425 0.686213
0.700511 0.933501 0.68629
0.825208 0.933593 0.686381
0.949889 0.933669 0.686458
1 0.933761 0.686549
0 0 0.874357
0.0858167 0 0.874449
0.210498 0 0.874525
0.335195 0 0.874617
0.459892 0 0.874693
0.584573 0 0.874784
0.70927 0 0.874861
0.833951 0 0.874952
0.958648 0 0.875029
0 0.0809949 0.887236
0.0986801 0.0810864 0.887312
0.223377 0.0811627 0.887404
0.348074 0.0812543 0.88748
0.472755 0.0813306 0.887572
0.597452 0.0814221 0.887648
0.722133 0.0814984 0.887739
0.84683 0.08159 0.887816
0.971527 0.0816663 0.887907
0 0.20087 0.900099
0.111559 0.200961 0.900191
0.236255 0.201038 0.900267
0.360937 0.201129 0.900359
0.485634 0.201205 0.900435
0.610315 0.201297 0.900526
0.735012 0.201389 0.900603
0.859709 0.201465 0.900694
0.98439 0.201556 0.900771
0 0.32076 0.912978
0.124437 0.320836 0.913069
0.249119 0.320928 0.913146
0.373816 0.321004 0.913237
0.498497 0.321096 0.913314
0.623194 0.321172 0.913405
0.74789 0.321263 0.913481
0.872572 0.32134 0.913573
0.997269 0.321431 0.913649
0.0126345 0.440635 0.925856
0.137301 0.440711 0.925933
0.261997 0.440803 0.926024
0.386679 0.440879 0.926101
0.511376 0.44097 0.926192
0.636072 0.441047 0.926268
0.760754 0.441138 0.92636
0.885451 0.441215 0.926436
1 0.441306 0.926528
0.0254978 0.56051 0.93872
0.150179 0.560586 0.938811
0.274861 0.560678 0.938888
0.399558 0.560754 0.938979
0.524254 0.560845 0.939055
0.648936 0.560922 0.939147
0.773632 0.561013 0.939223
0.898314 0.56109 0.939315
1 0.561181 0.939391
0.0383764 0.680385 0.951598
0.163043 0.680461 0.951675
0.287739 0.680552 0.951766
0.412436 0.680629 0.951843
0.537118 0.68072 0.951934
0.661814 0.680797 0.95201
0.786496 0.680888 0.952102
0.911192 0.680964 0.952178
1 0.681056 0.95227
0.0512551 0.800259 0.964462
0.175921 0.800336 0.964553
0.300618 0.800427 0.964645
0.425299 0.800504 0.964721
0.549996 0.800595 0.964813
0.674693 0.800671 0.964889
0.799374 0.800763 0.964981
0.924071 0.800839 0.965057
1 0.800931 0.965148
0.0641184 0.920134 0.97734
0.1888 0.920211 0.977432
0.313481 0.920302 0.977508
0.438178 0.920378 0.9776
0.562875 0.92047 0.977676
0.687556 0.920546 0.977768
0.812253 0.920638 0.977844
0.936934 0.920714 0.977935
1 0.920806 0.978012
0 0 1
0.0728618 0 1
0.197559 0 1
0.32224 0 1
0.446937 0 1
0.571618 0 1
0.696315 0 1
0.821012 0 1
0.945693 0 1
0 0.06804 1
0.0857252 0.0681315 1
0.210422 0.0682078 1
0.335119 0.0682994 1
0.4598 0.0683757 1
0.584497 0.0684672 1
0.709178 0.0685588 1
0.833875 0.0686351 1
0.958572 0.0687266 1
0 0.18793 1
0.0986038 0.188006 1
0.223301 0.188098 1
0.347982 0.188174 1
0.472679 0.188266 1
0.59736 0.188342 1
0.722057 0.188434 1
0.846754 0.18851 1
0.971435 0.188602 1
0 0.307805 1
0.111482 0.307881 1
0.236164 0.307973 1
0.360861 0.308049 1
0.485557 0.308141 1
0.610239 0.308217 1
0.734936 0.308309 1
0.859617 0.308385 1
0.984314 0.308476 1
0 0.42768 1
0.124346 0.427756 1
0.249042 0.427848 1
0.373739 0.427924 1
0.498421 0.428016 1
0.623117 0.428092 1
0.747799 0.428183 1
0.872496 0.42826 1
0.997192 0.428351 1
0.0125429 0.547555 1
0.137224 0.547631 1
0.261921 0.547723 1
0.386603 0.547799 1
0.511299 0.54789 1
0.635981 0.547967 1
0.760678 0.548058 1
0.885374 0.548135 1
1 0.548226 1
0.0254215 0.66743 1
0.150103 0.667506 1
0.274784 0.667597 1
0.399481 0.667674 1
0.524163 0.667765 1
0.648859 0.667842 1
0.773556 0.667933 1
0.898238 0.668009 1
1 0.668101 1
0.0383001 0.787305 1
0.162966 0.787381 1
0.287663 0.787472 1
0.412345 0.787549 1
0.537041 0.78764 1
0.661738 0.787717 1
0.786419 0.787808 1
0.911116 0.787884 1
1 0.787976 1
0.0511635 0.907179 1
0.175845 0.907256 1
0.300526 0.907347 1
0.425223 0.907423 1
0.54992 0.907515 1
0.674601 0.907591 1
0.799298 0.907683 1
0.92398 0.907759 1
1 0.907851 1
0 0 1
0.0599069 0 1
0.184604 0 1
0.309285 0 1
0.433982 0 1
0.558663 0 1
0.68336 0 1
0.808057 0 1
0.932738 0 1
0 0.0551003 1
0.0727855 0.0551766 1
0.197467 0.0552682 1
0.322164 0.0553445 1
0.446845 0.055436 1
0.571542 0.0555123 1
0.696239 0.0556039 1
0.82092 0.0556802 1
0.945617 0.0557717 1
0 0.174975 1
0.0856489 0.175051 1
0.210346 0.175143 1
0.335027 0.175219 1
0.459724 0.175311 1
0.584421 0.175387 1
0.709102 0.175479 1
0.833799 0.175555 1
0.95848 0.175647 1
0 0.29485 1
0.0985275 0.294926 1
0.223209 0.295018 1
0.347906 0.295094 1
0.472602 0.295186 1
0.597284 0.295262 1
0.721981 0.295354 1
0.846662 0.29543 1
0.971359 0.295521 1
0 0.414725 1
0.111391 0.414801 1
0.236088 0.414893 1
0.360784 0.414969 1
0.485466 0.415061 1
0.610162 0.415137 1
0.734844 0.415229 1
0.859541 0.415305 1
0.984237 0.415396 1
0 0.5346 1
0.124269 0.534676 1
0.248966 0.534768 1
0.373648 0.534844 1
0.498344 0.534936 1
0.623026 0.535012 1
0.747723 0.535103 1
0.872419 0.53518 1
0.997101 0.535271 1
0.0124666 0.654475 1
0.137148 0.654551 1
0.26183 0.654643 1
0.386526 0.654719 1
0.511208 0.65481 1
0.635904 0.654887 1
0.760601 0.654978 1
0.885283 0.655055 1
1 0.655146 1
0.0253452 0.77435 1
0.150011 0.774426 1
0.274708 0.774517 1
0.39939 0.774594 1
0.524086 0.774685 1
0.648783 0.774762 1
0.773465 0.774853 1
0.898161 0.774929 1
1 0.775021 1
0.0382086 0.894224 1
0.16289 0.894301 1
0.287572 0.894392 1
0.412268 0.894469 1
0.536965 0.89456 1
0.661646 0.894652 1
0.786343 0.894728 1
0.911025 0.89482 1
1 0.894896 1
0 0 1
0.046952 0 1
0.171649 0 1
0.29633 0 1
0.421027 0 1
0.545708 0 1
0.670405 0 1
0.795102 0 1
0.919783 0 1
0 0.0421454 1
0.0598306 0.0422217 1
0.184512 0.0423133 1
0.309209 0.0423896 1
0.43389 0.0424811 1
0.558587 0.0425574 1
0.683284 0.042649 1
0.807965 0.0427253 1
0.932662 0.0428168 1
0 0.16202 1
0.072694 0.162097 1
0.197391 0.162188 1
0.322072 0.162264 1
0.446769 0.162356 1
0.571466 0.162432 1
0.696147 0.162524 1
0.820844 0.1626 1
0.945525 0.162692 1
0 0.281895 1
0.0855726 0.281971 1
0.210254 0.282063 1
0.334951 0.282139 1
0.459648 0.282231 1
0.584329 0.282307 1
0.709026 0.282399 1
0.833707 0.282475 1
0.958404 0.282567 1
0 0.40177 1
0.098436 0.401846 1
0.223133 0.401938 1
0.347829 0.402014 1
0.472511 0.402106 1
0.597208 0.402182 1
0.721889 0.402274 1
0.846586 0.40235 1
0.971283 0.402441 1
0 0.521645 1
0.111315 0.521721 1
0.236011 0.521813 1
0.360693 0.521889 1
0.48539 0.521981 1
0.610071 0.522057 1
0.734768 0.522148 1
0.859464 0.522225 1
0.984146 0.522316 1
0 0.64152 1
0.124193 0.641596 1
0.248875 0.641688 1
0.373571 0.641764 1
0.498253 0.641855 1
0.62295 0.641932 1
0.747646 0.642023 1
0.872328 0.6421 1
0.997024 0.642191 1
0.0123903 0.761395 1
0.137057 0.761471 1
0.261753 0.761563 1
0.38645 0.761639 1
0.511131 0.76173 1
0.635828 0.761807 1
0.76051 0.761898 1
0.885206 0.76199 1
1 0.762066 1
0.0252537 0.88127 1
0.149935 0.881361 1
0.274632 0.881437 1
0.399313 0.881529 1
0.52401 0.881605 1
0.648692 0.881697 1
0.773388 0.881773 1
0.898085 0.881865 1
1 0.881941 1
0 0 1
0.0339971 0 1
0.158694 0 1
0.283375 0 1
0.408072 0 1
0.532769 0 1
0.65745 0 1
0.782147 0 1
0.906828 0 1
0 0.0291905 1
0.0468757 0.0292668 1
0.171557 0.0293584 1
0.296254 0.0294347 1
0.420935 0.0295262 1
0.545632 0.0296025 1
0.670329 0.0296941 1
0.79501 0.0297704 1
0.919707 0.0298619 1
0 0.149065 1
0.0597391 0.149142 1
0.184436 0.149233 1
0.309117 0.14931 1
0.433814 0.149401 1
0.558511 0.149477 1
0.683192 0.149569 1
0.807889 0.149645 1
0.93257 0.149737 1
0 0.26894 1
0.0726177 0.269017 1
0.197299 0.269108 1
0.321996 0.269184 1
0.446693 0.269276 1
0.571374 0.269352 1
0.696071 0.269444 1
0.820752 0.26952 1
0.945449 0.269612 1
0 0.388815 1
0.0854963 0.388891 1
0.210178 0.388983 1
0.334874 0.389059 1
0.459556 0.389151 1
0.584253 0.389227 1
0.708949 0.389319 1
0.833631 0.389395 1
0.958328 0.389487 1
0 0.50869 1
0.0983597 0.508766 1
0.223056 0.508858 1
0.347738 0.508934 1
0.472435 0.509026 1
0.597131 0.509102 1
0.721813 0.509194 1
0.84651 0.50927 1
0.971191 0.509361 1
0 0.628565 1
0.111238 0.628641 1
0.23592 0.628733 1
0.360616 0.628809 1
0.485313 0.628901 1
0.609995 0.628992 1
0.734691 0.629068 1
0.859373 0.62916 1
0.98407 0.629236 1
0 0.74844 1
0.124102 0.748531 1
0.248798 0.748608 1
0.373495 0.748699 1
0.498177 0.748775 1
0.622873 0.748867 1
0.747555 0.748943 1
0.872251 0.749035 1
0.996948 0.749111 1
0.0122988 0.868315 1
0.13698 0.868406 1
0.261677 0.868482 1
0.386358 0.868574 1
0.511055 0.86865 1
0.635737 0.868742 1
0.760433 0.868818 1
0.88513 0.86891 1
1 0.868986 1
0 0 1
0.0210422 0 1
0.145739 0 1
0.27042 0 1
0.395117 0 1
0.519814 0 1
0.644495 0 1
0.769192 0 1
0.893874 0 1
0 0.0162356 1
0.0339208 0.0163119 1
0.158602 0.0164034 1
0.283299 0.0164797 1
0.407996 0.0165713 1
0.532677 0.0166476 1
0.657374 0.0167391 1
0.782055 0.0168154 1
0.906752 0.016907 1
0 0.13611 1
0.0467842 0.136187 1
0.171481 0.136278 1
0.296178 0.136355 1
0.420859 0.136446 1
0.545556 0.136522 1
0.670237 0.136614 1
0.794934 0.13669 1
0.919631 0.136782 1
0 0.255985 1
0.0596628 0.256062 1
0.18436 0.256153 1
0.309041 0.256229 1
0.433738 0.256321 1
0.558419 0.256397 1
0.683116 0.256489 1
0.807813 0.256565 1
0.932494 0.256657 1
0 0.37586 1
0.0725414 0.375937 1
0.197223 0.376028 1
0.32192 0.376104 1
0.446601 0.376196 1
0.571298 0.376272 1
0.695994 0.376364 1
0.820676 0.37644 1
0.945373 0.376532 1
0 0.495735 1
0.0854047 0.495811 1
0.210101 0.495903 1
0.334783 0.495979 1
0.45948 0.496071 1
0.584176 0.496162 1
0.708858 0.496239 1
0.833555 0.49633 1
0.958236 0.496406 1
0 0.61561 1
0.0982834 0.615702 1
0.222965 0.615778 1
0.347662 0.615869 1
0.472358 0.615946 1
0.59704 0.616037 1
0.721736 0.616114 1
0.846418 0.616205 1
0.971115 0.616281 1
0 0.735485 1
0.111147 0.735576 1
0.235843 0.735653 1
0.36054 0.735744 1
0.485222 0.735821 1
0.609918 0.735912 1
0.7346 0.735988 1
0.859297 0.73608 1
0.983993 0.736156 1
0 0.85536 1
0.124025 0.855451 1
0.248722 0.855528 1
0.373404 0.855619 1
0.4981 0.855695 1
0.622782 0.855787 1
0.747478 0.855863 1
0.872175 0.855955 1
0.996857 0.856031 1
