Assets/HDRPipeline/Grades/CoolGrade_1.MarcieLogLog.cube
TITLE "Generated by Resolve"
LUT_3D_SIZE 33
0 0 0
0.0311589 1.5259e-05 1.5259e-05
0.0623331 4.57771e-05 4.57771e-05
0.0935073 6.10361e-05 6.10361e-05
0.124681 9.15541e-05 9.15541e-05
0.155856 0.000106813 0.000106813
0.187015 0.000122072 0.000122072
0.218189 0.00015259 0.00015259
0.249363 0.000167849 0.000167849
0.280537 0.000183108 0.000183108
0.311711 0.000213626 0.000213626
0.342885 0.000228885 0.000228885
0.37406 0.000259403 0.000259403
0.405234 0.000274662 0.000274662
0.436408 0.000289921 0.000289921
0.467582 0.000320439 0.000320439
0.498741 0.000335698 0.000335698
0.529915 0.000350958 0.000350958
0.56109 0.000381476 0.000381476
0.592264 0.000396735 0.000396735
0.623438 0.000427253 0.000427253
0.654612 0.000442512 0.000442512
0.685786 0.000457771 0.000457771
0.71696 0.000488289 0.000488289
0.748135 0.000503548 0.000503548
0.779309 0.000518807 0.000518807
0.810468 0.000549325 0.000549325
0.841642 0.000564584 0.000564584
0.872816 0.000595102 0.000595102
0.90399 0.000610361 0.000610361
0.935164 0.00062562 0.00062562
0.966339 0.000656138 0.000656138
0.997513 0.000671397 0.000671397
0.00321965 0.0299535 0.00321965
0.0343786 0.0299687 0.00323491
0.0655528 0.0299992 0.00326543
0.0967269 0.0300145 0.00328069
0.127886 0.030045 0.00329595
0.15906 0.0300603 0.00332647
0.190234 0.0300755 0.00334173
0.221408 0.0301061 0.00335698
0.252583 0.0301213 0.0033875
0.283757 0.0301366 0.00340276
0.314931 0.0301671 0.00343328
0.346105 0.0301823 0.00344854
0.377279 0.0302129 0.0034638
0.408453 0.0302281 0.00349432
0.439612 0.0302434 0.00350958
0.470787 0.0302739 0.00352483
0.501961 0.0302892 0.00355535
0.533135 0.0303044 0.00357061
0.564309 0.0303349 0.00360113
0.595483 0.0303502 0.00361639
0.626657 0.0303807 0.00363165
0.657832 0.030396 0.00366217
0.689006 0.0304112 0.00367742
0.72018 0.0304417 0.00369268
0.751339 0.030457 0.0037232
0.782513 0.0304723 0.00373846
0.813687 0.0305028 0.00376898
0.844862 0.030518 0.00378424
0.876036 0.0305486 0.0037995
0.90721 0.0305638 0.00383001
0.938384 0.0305791 0.00384527
0.969558 0.0306096 0.00386053
1 0.0306249 0.00389105
0.00643931 0.0599222 0.00643931
0.0375982 0.0599374 0.00645457
0.0687724 0.059968 0.00646983
0.0999313 0.0599832 0.00650034
0.131106 0.0600137 0.0065156
0.16228 0.060029 0.00654612
0.193454 0.0600443 0.00656138
0.224628 0.0600748 0.00657664
0.255802 0.06009 0.00660716
0.286976 0.0601053 0.00662242
0.318151 0.0601358 0.00663767
0.349325 0.0601511 0.00666819
0.380499 0.0601816 0.00668345
0.411658 0.0601968 0.00671397
0.442832 0.0602121 0.00672923
0.474006 0.0602426 0.00674449
0.50518 0.0602579 0.00677501
0.536355 0.0602731 0.00679026
0.567529 0.0603037 0.00680552
0.598703 0.0603189 0.00683604
0.629877 0.0603494 0.0068513
0.661051 0.0603647 0.00688182
0.692226 0.0603799 0.00689708
0.723384 0.0604105 0.00691234
0.754559 0.0604257 0.00694286
0.785733 0.060441 0.00695811
0.816907 0.0604715 0.00698863
0.848081 0.0604868 0.00700389
0.879255 0.0605173 0.00701915
0.91043 0.0605325 0.00704967
0.941604 0.0605478 0.00706493
0.972778 0.0605783 0.00708019
1 0.0605936 0.0071107
0.00965896 0.0898909 0.00965896
0.0408179 0.0899062 0.00967422
0.0719768 0.0899367 0.00968948
0.103151 0.0899519 0.00972
0.134325 0.0899825 0.00973526
0.165499 0.0899977 0.00975052
0.196674 0.090013 0.00978103
0.227848 0.0900435 0.00979629
0.259022 0.0900587 0.00982681
0.290196 0.090074 0.00984207
0.32137 0.0901045 0.00985733
0.352544 0.0901198 0.00988785
0.383703 0.0901503 0.0099031
0.414878 0.0901656 0.00993362
0.446052 0.0901808 0.00994888
0.477226 0.0902113 0.00996414
0.5084 0.0902266 0.00999466
0.539574 0.0902419 0.0100099
0.570748 0.0902724 0.0100252
0.601923 0.0902876 0.0100557
0.633097 0.0903182 0.010071
0.664271 0.0903334 0.0101015
0.69543 0.0903487 0.0101167
0.726604 0.0903792 0.010132
0.757778 0.0903944 0.0101625
0.788952 0.090425 0.0101778
0.820127 0.0904402 0.010193
0.851301 0.0904555 0.0102235
0.882475 0.090486 0.0102388
0.913649 0.0905013 0.0102693
0.944823 0.0905165 0.0102846
0.975998 0.090547 0.0102998
1 0.0905623 0.0103304
0.0128786 0.11986 0.0128786
0.0440223 0.119875 0.0128939
0.0751965 0.119905 0.0129091
0.106371 0.119921 0.0129397
0.137545 0.119951 0.0129549
0.168719 0.119966 0.0129702
0.199893 0.119982 0.0130007
0.231067 0.120012 0.0130159
0.262242 0.120027 0.0130465
0.293416 0.120043 0.0130617
0.32459 0.120073 0.013077
0.355749 0.120089 0.0131075
0.386923 0.120119 0.0131228
0.418097 0.120134 0.013138
0.449271 0.12015 0.0131685
0.480446 0.12018 0.0131838
0.51162 0.120195 0.0132143
0.542794 0.120226 0.0132296
0.573968 0.120241 0.0132448
0.605142 0.120256 0.0132753
0.636316 0.120287 0.0132906
0.667475 0.120302 0.0133059
0.69865 0.120317 0.0133364
0.729824 0.120348 0.0133516
0.760998 0.120363 0.0133822
0.792172 0.120394 0.0133974
0.823346 0.120409 0.0134127
0.85452 0.120424 0.0134432
0.885695 0.120455 0.0134585
0.916869 0.12047 0.0134737
0.948043 0.120485 0.0135042
0.979202 0.120516 0.0135195
1 0.120531 0.01355
0.016083 0.149828 0.016083
0.0472419 0.149844 0.0161135
0.0784161 0.149874 0.0161288
0.10959 0.149889 0.0161593
0.140764 0.14992 0.0161746
0.171939 0.149935 0.0161898
0.203113 0.14995 0.0162203
0.234287 0.149981 0.0162356
0.265461 0.149996 0.0162509
0.296635 0.150027 0.0162814
0.327794 0.150042 0.0162966
0.358968 0.150057 0.0163272
0.390143 0.150088 0.0163424
0.421317 0.150103 0.0163577
0.452491 0.150118 0.0163882
0.483665 0.150149 0.0164034
0.514839 0.150164 0.0164187
0.546014 0.150195 0.0164492
0.577188 0.15021 0.0164645
0.608362 0.150225 0.016495
0.639521 0.150256 0.0165103
0.670695 0.150271 0.0165255
0.701869 0.150286 0.016556
0.733043 0.150317 0.0165713
0.764218 0.150332 0.0165866
0.795392 0.150362 0.0166171
0.826566 0.150378 0.0166323
0.85774 0.150393 0.0166629
0.888914 0.150423 0.0166781
0.920089 0.150439 0.0166934
0.951247 0.150454 0.0167239
0.982422 0.150484 0.0167391
1 0.1505 0.0167544
0.0193027 0.179797 0.0193027
0.0504616 0.179828 0.0193332
0.0816358 0.179843 0.0193484
0.11281 0.179858 0.0193637
0.143984 0.179889 0.0193942
0.175158 0.179904 0.0194095
0.206332 0.179919 0.01944
0.237507 0.17995 0.0194553
0.268681 0.179965 0.0194705
0.29984 0.179995 0.019501
0.331014 0.180011 0.0195163
0.362188 0.180026 0.0195315
0.393362 0.180056 0.0195621
0.424536 0.180072 0.0195773
0.455711 0.180087 0.0196078
0.486885 0.180117 0.0196231
0.518059 0.180133 0.0196384
0.549233 0.180163 0.0196689
0.580407 0.180179 0.0196841
0.611566 0.180194 0.0196994
0.642741 0.180224 0.0197299
0.673915 0.18024 0.0197452
0.705089 0.180255 0.0197757
0.736263 0.180285 0.019791
0.767437 0.180301 0.0198062
0.798611 0.180331 0.0198367
0.829786 0.180346 0.019852
0.86096 0.180362 0.0198672
0.892134 0.180392 0.0198978
0.923293 0.180407 0.019913
0.954467 0.180423 0.0199435
0.985641 0.180453 0.0199588
1 0.180468 0.0199741
0.0225223 0.209766 0.0225223
0.0536812 0.209796 0.0225528
0.0848554 0.209812 0.0225681
0.11603 0.209827 0.0225834
0.147204 0.209857 0.0226139
0.178378 0.209873 0.0226291
0.209552 0.209888 0.0226444
0.240726 0.209918 0.0226749
0.271885 0.209934 0.0226902
0.303059 0.209964 0.0227207
0.334234 0.209979 0.0227359
0.365408 0.209995 0.0227512
0.396582 0.210025 0.0227817
0.427756 0.21004 0.022797
0.45893 0.210056 0.0228275
0.490105 0.210086 0.0228428
0.521279 0.210101 0.022858
0.552453 0.210132 0.0228885
0.583612 0.210147 0.0229038
0.614786 0.210163 0.0229191
0.64596 0.210193 0.0229496
0.677134 0.210208 0.0229648
0.708309 0.210224 0.0229953
0.739483 0.210254 0.0230106
0.770657 0.210269 0.0230259
0.801831 0.2103 0.0230564
0.833005 0.210315 0.0230716
0.864179 0.21033 0.0230869
0.895338 0.210361 0.0231174
0.926513 0.210376 0.0231327
0.957687 0.210391 0.0231632
0.988861 0.210422 0.0231785
1 0.210437 0.0231937
0.025742 0.239734 0.025742
0.0569009 0.239765 0.0257725
0.0880751 0.23978 0.0257877
0.119249 0.239796 0.025803
0.150423 0.239826 0.0258335
0.181598 0.239841 0.0258488
0.212772 0.239857 0.025864
0.243931 0.239887 0.0258946
0.275105 0.239902 0.0259098
0.306279 0.239933 0.0259403
0.337453 0.239948 0.0259556
0.368627 0.239963 0.0259709
0.399802 0.239994 0.0260014
0.430976 0.240009 0.0260166
0.46215 0.240024 0.0260319
0.493324 0.240055 0.0260624
0.524498 0.24007 0.0260777
0.555657 0.240101 0.0261082
0.586831 0.240116 0.0261234
0.618006 0.240131 0.0261387
0.64918 0.240162 0.0261692
0.680354 0.240177 0.0261845
0.711528 0.240192 0.0261997
0.742702 0.240223 0.0262303
0.773877 0.240238 0.0262455
0.805051 0.240269 0.026276
0.836225 0.240284 0.0262913
0.867384 0.240299 0.0263066
0.898558 0.24033 0.0263371
0.929732 0.240345 0.0263523
0.960906 0.24036 0.0263676
0.992081 0.240391 0.0263981
1 0.240406 0.0264134
0.0289616 0.269703 0.0289616
0.0601205 0.269734 0.0289769
0.0912947 0.269749 0.0290074
0.122469 0.269764 0.0290227
0.153643 0.269795 0.0290532
0.184817 0.26981 0.0290684
0.215976 0.269825 0.0290837
0.24715 0.269856 0.0291142
0.278325 0.269871 0.0291295
0.309499 0.269902 0.0291447
0.340673 0.269917 0.0291752
0.371847 0.269932 0.0291905
0.403021 0.269963 0.029221
0.434195 0.269978 0.0292363
0.46537 0.269993 0.0292515
0.496544 0.270024 0.0292821
0.527703 0.270039 0.0292973
0.558877 0.270069 0.0293126
0.590051 0.270085 0.0293431
0.621225 0.2701 0.0293584
0.652399 0.27013 0.0293889
0.683574 0.270146 0.0294041
0.714748 0.270161 0.0294194
0.745922 0.270191 0.0294499
0.777096 0.270207 0.0294652
0.80827 0.270237 0.0294804
0.839429 0.270253 0.0295109
0.870604 0.270268 0.0295262
0.901778 0.270298 0.0295567
0.932952 0.270314 0.029572
0.964126 0.270329 0.0295872
0.9953 0.270359 0.0296178
1 0.270375 0.029633
0.0321813 0.299672 0.0321813
0.0633402 0.299702 0.0321965
0.0945144 0.299718 0.0322271
0.125689 0.299733 0.0322423
0.156863 0.299763 0.0322576
0.188022 0.299779 0.0322881
0.219196 0.299794 0.0323033
0.25037 0.299825 0.0323339
0.281544 0.29984 0.0323491
0.312718 0.29987 0.0323644
0.343893 0.299886 0.0323949
0.375067 0.299901 0.0324102
0.406241 0.299931 0.0324254
0.437415 0.299947 0.0324559
0.468589 0.299962 0.0324712
0.499748 0.299992 0.0325017
0.530922 0.300008 0.032517
0.562097 0.300038 0.0325322
0.593271 0.300053 0.0325628
0.624445 0.300069 0.032578
0.655619 0.300099 0.0325933
0.686793 0.300114 0.0326238
0.717968 0.30013 0.032639
0.749142 0.30016 0.0326696
0.780316 0.300175 0.0326848
0.811475 0.300206 0.0327001
0.842649 0.300221 0.0327306
0.873823 0.300237 0.0327459
0.904997 0.300267 0.0327611
0.936172 0.300282 0.0327916
0.967346 0.300313 0.0328069
0.99852 0.300328 0.0328374
1 0.300343 0.0328527
0.0354009 0.329641 0.0354009
0.0665599 0.329671 0.0354162
0.097734 0.329686 0.0354467
0.128908 0.329702 0.035462
0.160067 0.329732 0.0354772
0.191241 0.329747 0.0355077
0.222416 0.329763 0.035523
0.25359 0.329793 0.0355383
0.284764 0.329809 0.0355688
0.315938 0.329839 0.035584
0.347112 0.329854 0.0356146
0.378286 0.32987 0.0356298
0.409461 0.3299 0.0356451
0.440635 0.329915 0.0356756
0.471794 0.329931 0.0356909
0.502968 0.329961 0.0357214
0.534142 0.329976 0.0357366
0.565316 0.330007 0.0357519
0.59649 0.330022 0.0357824
0.627665 0.330037 0.0357977
0.658839 0.330068 0.0358129
0.690013 0.330083 0.0358434
0.721187 0.330114 0.0358587
0.752361 0.330129 0.0358892
0.78352 0.330144 0.0359045
0.814694 0.330175 0.0359197
0.845869 0.33019 0.0359503
0.877043 0.330205 0.0359655
0.908217 0.330236 0.0359808
0.939391 0.330251 0.0360113
0.970565 0.330282 0.0360266
1 0.330297 0.0360571
1 0.330312 0.0360723
0.0386206 0.359609 0.0386206
0.0697795 0.35964 0.0386358
0.100954 0.359655 0.0386664
0.132113 0.35967 0.0386816
0.163287 0.359701 0.0386969
0.194461 0.359716 0.0387274
0.225635 0.359731 0.0387427
0.256809 0.359762 0.0387579
0.287984 0.359777 0.0387884
0.319158 0.359808 0.0388037
0.350332 0.359823 0.0388342
0.381506 0.359838 0.0388495
0.41268 0.359869 0.0388647
0.443839 0.359884 0.0388952
0.475013 0.359915 0.0389105
0.506188 0.35993 0.0389258
0.537362 0.359945 0.0389563
0.568536 0.359976 0.0389715
0.59971 0.359991 0.0390021
0.630884 0.360006 0.0390173
0.662058 0.360037 0.0390326
0.693233 0.360052 0.0390631
0.724407 0.360082 0.0390784
0.755566 0.360098 0.0390936
0.78674 0.360113 0.0391241
0.817914 0.360143 0.0391394
0.849088 0.360159 0.0391699
0.880262 0.360174 0.0391852
0.911437 0.360204 0.0392004
0.942611 0.36022 0.0392309
0.973785 0.36025 0.0392462
1 0.360265 0.0392615
1 0.360281 0.039292
0.0418402 0.389578 0.0418402
0.0729992 0.389609 0.0418555
0.104158 0.389624 0.0418708
0.135332 0.389639 0.0419013
0.166506 0.38967 0.0419165
0.197681 0.389685 0.0419471
0.228855 0.389715 0.0419623
0.260029 0.389731 0.0419776
0.291203 0.389746 0.0420081
0.322377 0.389776 0.0420233
0.353552 0.389792 0.0420386
0.384726 0.389807 0.0420691
0.415885 0.389838 0.0420844
0.447059 0.389853 0.0421149
0.478233 0.389883 0.0421302
0.509407 0.389899 0.0421454
0.540581 0.389914 0.0421759
0.571756 0.389944 0.0421912
0.60293 0.38996 0.0422065
0.634104 0.389975 0.042237
0.665278 0.390005 0.0422522
0.696452 0.390021 0.0422827
0.727611 0.390051 0.042298
0.758785 0.390066 0.0423133
0.78996 0.390082 0.0423438
0.821134 0.390112 0.042359
0.852308 0.390127 0.0423743
0.883482 0.390143 0.0424048
0.914656 0.390173 0.0424201
0.94583 0.390188 0.0424506
0.977005 0.390219 0.0424659
1 0.390234 0.0424811
1 0.390249 0.0425116
0.0450599 0.419547 0.0450599
0.0762036 0.419577 0.0450752
0.107378 0.419593 0.0450904
0.138552 0.419608 0.0451209
0.169726 0.419638 0.0451362
0.2009 0.419654 0.0451514
0.232074 0.419684 0.045182
0.263249 0.419699 0.0451972
0.294423 0.419715 0.0452277
0.325597 0.419745 0.045243
0.356771 0.41976 0.0452583
0.38793 0.419776 0.0452888
0.419104 0.419806 0.045304
0.450278 0.419821 0.0453193
0.481453 0.419852 0.0453498
0.512627 0.419867 0.0453651
0.543801 0.419883 0.0453956
0.574975 0.419913 0.0454108
0.606149 0.419928 0.0454261
0.637324 0.419944 0.0454566
0.668498 0.419974 0.0454719
0.699657 0.419989 0.0454871
0.730831 0.42002 0.0455177
0.762005 0.420035 0.0455329
0.793179 0.42005 0.0455634
0.824353 0.420081 0.0455787
0.855528 0.420096 0.045594
0.886702 0.420111 0.0456245
0.917876 0.420142 0.0456397
0.94905 0.420157 0.045655
0.980224 0.420188 0.0456855
1 0.420203 0.0457008
1 0.420218 0.0457313
0.0482643 0.449516 0.0482643
0.0794232 0.449546 0.0482948
0.110597 0.449561 0.0483101
0.141772 0.449577 0.0483406
0.172946 0.449607 0.0483558
0.20412 0.449622 0.0483711
0.235294 0.449653 0.0484016
0.266468 0.449668 0.0484169
0.297642 0.449683 0.0484321
0.328817 0.449714 0.0484627
0.359976 0.449729 0.0484779
0.39115 0.449744 0.0485084
0.422324 0.449775 0.0485237
0.453498 0.44979 0.0485389
0.484672 0.449821 0.0485695
0.515846 0.449836 0.0485847
0.547021 0.449851 0.0486
0.578195 0.449882 0.0486305
0.609369 0.449897 0.0486458
0.640543 0.449912 0.0486763
0.671702 0.449943 0.0486915
0.702876 0.449958 0.0487068
0.734051 0.449989 0.0487373
0.765225 0.450004 0.0487526
0.796399 0.450019 0.0487831
0.827573 0.45005 0.0487984
0.858747 0.450065 0.0488136
0.889921 0.45008 0.0488441
0.921096 0.450111 0.0488594
0.95227 0.450126 0.0488746
0.983429 0.450156 0.0489052
1 0.450172 0.0489204
1 0.450187 0.0489509
0.0514839 0.479484 0.0514839
0.0826429 0.479515 0.0515145
0.113817 0.47953 0.0515297
0.144991 0.479545 0.051545
0.176165 0.479576 0.0515755
0.20734 0.479591 0.0515908
0.238514 0.479622 0.0516213
0.269688 0.479637 0.0516365
0.300862 0.479652 0.0516518
0.332021 0.479683 0.0516823
0.363195 0.479698 0.0516976
0.394369 0.479713 0.0517281
0.425544 0.479744 0.0517433
0.456718 0.479759 0.0517586
0.487892 0.479789 0.0517891
0.519066 0.479805 0.0518044
0.55024 0.47982 0.0518196
0.581415 0.47985 0.0518502
0.612589 0.479866 0.0518654
0.643748 0.479881 0.0518959
0.674922 0.479912 0.0519112
0.706096 0.479927 0.0519265
0.73727 0.479957 0.051957
0.768444 0.479973 0.0519722
0.799619 0.479988 0.0519875
0.830793 0.480018 0.052018
0.861967 0.480034 0.0520333
0.893141 0.480049 0.0520638
0.924315 0.480079 0.052079
0.955474 0.480095 0.0520943
0.986648 0.480125 0.0521248
1 0.48014 0.0521401
1 0.480156 0.0521553
0.0547036 0.509453 0.0547036
0.0858625 0.509483 0.0547341
0.117037 0.509499 0.0547494
0.148211 0.509514 0.0547646
0.179385 0.509544 0.0547951
0.210559 0.50956 0.0548104
0.241733 0.50959 0.0548409
0.272908 0.509606 0.0548562
0.304067 0.509621 0.0548714
0.335241 0.509651 0.054902
0.366415 0.509667 0.0549172
0.397589 0.509682 0.0549325
0.428763 0.509712 0.054963
0.459937 0.509728 0.0549783
0.491112 0.509758 0.0550088
0.522286 0.509773 0.055024
0.55346 0.509789 0.0550393
0.584634 0.509819 0.0550698
0.615793 0.509834 0.0550851
0.646967 0.50985 0.0551003
0.678141 0.50988 0.0551308
0.709316 0.509896 0.0551461
0.74049 0.509926 0.0551766
0.771664 0.509941 0.0551919
0.802838 0.509957 0.0552071
0.834012 0.509987 0.0552377
0.865187 0.510002 0.0552529
0.896361 0.510018 0.0552682
0.92752 0.510048 0.0552987
0.958694 0.510063 0.055314
0.989868 0.510094 0.0553445
1 0.510109 0.0553597
1 0.510124 0.055375
0.0579232 0.539422 0.0579232
0.0890822 0.539452 0.0579538
0.120256 0.539467 0.057969
0.151431 0.539483 0.0579843
0.182605 0.539513 0.0580148
0.213779 0.539528 0.0580301
0.244953 0.539559 0.0580453
0.276112 0.539574 0.0580758
0.307286 0.53959 0.0580911
0.33846 0.53962 0.0581216
0.369635 0.539635 0.0581369
0.400809 0.539651 0.0581521
0.431983 0.539681 0.0581826
0.463157 0.539696 0.0581979
0.494331 0.539727 0.0582132
0.525505 0.539742 0.0582437
0.55668 0.539757 0.0582589
0.587839 0.539788 0.0582895
0.619013 0.539803 0.0583047
0.650187 0.539818 0.05832
0.681361 0.539849 0.0583505
0.712535 0.539864 0.0583658
0.743709 0.539895 0.058381
0.774884 0.53991 0.0584115
0.806058 0.539925 0.0584268
0.837232 0.539956 0.0584573
0.868406 0.539971 0.0584726
0.899565 0.540002 0.0584878
0.930739 0.540017 0.0585184
0.961913 0.540032 0.0585336
0.993088 0.540063 0.0585489
1 0.540078 0.0585794
1 0.540093 0.0585946
0.0611429 0.56939 0.0611429
0.0923018 0.569421 0.0611582
0.123476 0.569436 0.0611887
0.15465 0.569451 0.0612039
0.185824 0.569482 0.0612345
0.216999 0.569497 0.0612497
0.248157 0.569528 0.061265
0.279332 0.569543 0.0612955
0.310506 0.569558 0.0613107
0.34168 0.569589 0.061326
0.372854 0.569604 0.0613565
0.404028 0.569619 0.0613718
0.435203 0.56965 0.0614023
0.466377 0.569665 0.0614176
0.497551 0.569696 0.0614328
0.528725 0.569711 0.0614633
0.559884 0.569726 0.0614786
0.591058 0.569757 0.0614939
0.622232 0.569772 0.0615244
0.653407 0.569802 0.0615396
0.684581 0.569818 0.0615702
0.715755 0.569833 0.0615854
0.746929 0.569863 0.0616007
0.778103 0.569879 0.0616312
0.809277 0.569894 0.0616464
0.840452 0.569924 0.061677
0.871611 0.56994 0.0616922
0.902785 0.56997 0.0617075
0.933959 0.569986 0.061738
0.965133 0.570001 0.0617533
0.996307 0.570031 0.0617685
1 0.570047 0.061799
1 0.570062 0.0618143
0.0643626 0.599359 0.0643626
0.0955215 0.59939 0.0643778
0.126696 0.599405 0.0644083
0.15787 0.59942 0.0644236
0.189044 0.599451 0.0644388
0.220203 0.599466 0.0644694
0.251377 0.599496 0.0644846
0.282551 0.599512 0.0645151
0.313726 0.599527 0.0645304
0.3449 0.599557 0.0645457
0.376074 0.599573 0.0645762
0.407248 0.599603 0.0645914
0.438422 0.599619 0.064622
0.469596 0.599634 0.0646372
0.500771 0.599664 0.0646525
0.531929 0.59968 0.064683
0.563104 0.599695 0.0646982
0.594278 0.599725 0.0647135
0.625452 0.599741 0.064744
0.656626 0.599771 0.0647593
0.6878 0.599786 0.0647898
0.718975 0.599802 0.0648051
0.750149 0.599832 0.0648203
0.781323 0.599847 0.0648508
0.812497 0.599863 0.0648661
0.843656 0.599893 0.0648814
0.87483 0.599908 0.0649119
0.906004 0.599939 0.0649271
0.937179 0.599954 0.0649577
0.968353 0.59997 0.0649729
0.999527 0.6 0.0649882
1 0.600015 0.0650187
1 0.600031 0.0650339
0.0675822 0.629328 0.0675822
0.0987411 0.629358 0.0675975
0.129915 0.629374 0.067628
0.161089 0.629404 0.0676432
0.192248 0.629419 0.0676585
0.223423 0.629435 0.067689
0.254597 0.629465 0.0677043
0.285771 0.62948 0.0677348
0.316945 0.629496 0.0677501
0.348119 0.629526 0.0677653
0.379294 0.629541 0.0677958
0.410468 0.629572 0.0678111
0.441642 0.629587 0.0678264
0.472816 0.629602 0.0678569
0.503975 0.629633 0.0678721
0.535149 0.629648 0.0679026
0.566323 0.629664 0.0679179
0.597498 0.629694 0.0679332
0.628672 0.629709 0.0679637
0.659846 0.62974 0.0679789
0.69102 0.629755 0.0679942
0.722194 0.62977 0.0680247
0.753368 0.629801 0.06804
0.784543 0.629816 0.0680705
0.815702 0.629831 0.0680858
0.846876 0.629862 0.068101
0.87805 0.629877 0.0681315
0.909224 0.629908 0.0681468
0.940398 0.629923 0.0681621
0.971572 0.629938 0.0681926
1 0.629969 0.0682078
1 0.629984 0.0682383
1 0.629999 0.0682536
0.0708019 0.659297 0.0708019
0.101961 0.659327 0.0708171
0.133135 0.659342 0.0708476
0.164294 0.659373 0.0708629
0.195468 0.659388 0.0708782
0.226642 0.659403 0.0709087
0.257816 0.659434 0.0709239
0.288991 0.659449 0.0709392
0.320165 0.659464 0.0709697
0.351339 0.659495 0.070985
0.382513 0.65951 0.0710155
0.413687 0.659541 0.0710307
0.444862 0.659556 0.071046
0.47602 0.659571 0.0710765
0.507195 0.659602 0.0710918
0.538369 0.659617 0.071107
0.569543 0.659632 0.0711376
0.600717 0.659663 0.0711528
0.631891 0.659678 0.0711833
0.663066 0.659709 0.0711986
0.69424 0.659724 0.0712139
0.725414 0.659739 0.0712444
0.756588 0.65977 0.0712596
0.787747 0.659785 0.0712749
0.818921 0.6598 0.0713054
0.850095 0.659831 0.0713207
0.88127 0.659846 0.0713512
0.912444 0.659876 0.0713664
0.943618 0.659892 0.0713817
0.974792 0.659907 0.0714122
1 0.659937 0.0714275
1 0.659953 0.0714427
1 0.659968 0.0714733
0.0740215 0.689265 0.0740215
0.10518 0.689296 0.0740368
0.136339 0.689311 0.074052
0.167514 0.689342 0.0740826
0.198688 0.689357 0.0740978
0.229862 0.689372 0.0741283
0.261036 0.689403 0.0741436
0.29221 0.689418 0.0741588
0.323384 0.689433 0.0741894
0.354559 0.689464 0.0742046
0.385733 0.689479 0.0742199
0.416907 0.689509 0.0742504
0.448081 0.689525 0.0742657
0.47924 0.68954 0.0742962
0.510414 0.68957 0.0743114
0.541588 0.689586 0.0743267
0.572763 0.689601 0.0743572
0.603937 0.689632 0.0743725
0.635111 0.689647 0.0743877
0.666285 0.689677 0.0744182
0.697459 0.689693 0.0744335
0.728634 0.689708 0.074464
0.759808 0.689738 0.0744793
0.790967 0.689754 0.0744945
0.822141 0.689769 0.0745251
0.853315 0.689799 0.0745403
0.884489 0.689815 0.0745556
0.915663 0.689845 0.0745861
0.946838 0.68986 0.0746014
0.978012 0.689876 0.0746319
1 0.689906 0.0746471
1 0.689921 0.0746624
1 0.689937 0.0746929
0.0772412 0.719234 0.0772412
0.1084 0.719265 0.0772564
0.139559 0.71928 0.0772717
0.170733 0.71931 0.0773022
0.201907 0.719326 0.0773175
0.233082 0.719341 0.0773327
0.264256 0.719371 0.0773632
0.29543 0.719387 0.0773785
0.326604 0.719402 0.077409
0.357778 0.719432 0.0774243
0.388952 0.719448 0.0774395
0.420127 0.719478 0.0774701
0.451286 0.719493 0.0774853
0.48246 0.719509 0.0775158
0.513634 0.719539 0.0775311
0.544808 0.719554 0.0775464
0.575982 0.71957 0.0775769
0.607156 0.7196 0.0775921
0.638331 0.719615 0.0776074
0.669505 0.719646 0.0776379
0.700679 0.719661 0.0776532
0.731853 0.719676 0.0776837
0.763012 0.719707 0.0776989
0.794186 0.719722 0.0777142
0.82536 0.719738 0.0777447
0.856535 0.719768 0.07776
0.887709 0.719783 0.0777752
0.918883 0.719814 0.0778058
0.950057 0.719829 0.077821
0.981231 0.719844 0.0778515
1 0.719875 0.0778668
1 0.71989 0.0778821
1 0.719905 0.0779126
0.0804608 0.749203 0.0804608
0.111604 0.749233 0.0804761
0.142779 0.749249 0.0804913
0.173953 0.749279 0.0805219
0.205127 0.749294 0.0805371
0.236301 0.74931 0.0805524
0.267475 0.74934 0.0805829
0.29865 0.749355 0.0805982
0.329824 0.749371 0.0806287
0.360998 0.749401 0.0806439
0.392172 0.749416 0.0806592
0.423331 0.749447 0.0806897
0.454505 0.749462 0.080705
0.485679 0.749477 0.0807202
0.516854 0.749508 0.0807507
0.548028 0.749523 0.080766
0.579202 0.749538 0.0807965
0.610376 0.749569 0.0808118
0.64155 0.749584 0.080827
0.672724 0.749615 0.0808576
0.703899 0.74963 0.0808728
0.735058 0.749645 0.0808881
0.766232 0.749676 0.0809186
0.797406 0.749691 0.0809339
0.82858 0.749706 0.0809644
0.859754 0.749737 0.0809796
0.890929 0.749752 0.0809949
0.922103 0.749783 0.0810254
0.953277 0.749798 0.0810407
0.984451 0.749813 0.0810559
1 0.749844 0.0810864
1 0.749859 0.0811017
1 0.749874 0.0811322
0.0836652 0.779171 0.0836652
0.114824 0.779202 0.0836957
0.145998 0.779217 0.083711
0.177172 0.779248 0.0837415
0.208347 0.779263 0.0837568
