Assets/HDRPipeline/Grades/Identity_slope22_1.Marcie_Log2.cube
TITLE "Generated by Resolve"
LUT_3D_SIZE 9
0.00534066 0.00534066 0.00534066
0.0935988 0.00534066 0.00534066
0.176242 0.00534066 0.00534066
0.253849 0.00534066 0.00534066
0.430167 0.00534066 0.00534066
0.717678 0.00534066 0.00534066
0.859037 0.00534066 0.00534066
0.943297 0.00534066 0.00534066
0.999969 0.00534066 0.00534066
0.00534066 0.0935988 0.00534066
0.0935988 0.0935988 0.00534066
0.176242 0.0935988 0.00534066
0.253849 0.0935988 0.00534066
0.430167 0.0935988 0.00534066
0.717678 0.0935988 0.00534066
0.859037 0.0935988 0.00534066
0.943297 0.0935988 0.00534066
0.999969 0.0935988 0.00534066
0.00534066 0.176242 0.00534066
0.0935988 0.176242 0.00534066
0.176242 0.176242 0.00534066
0.253849 0.176242 0.00534066
0.430167 0.176242 0.00534066
0.717678 0.176242 0.00534066
0.859037 0.176242 0.00534066
0.943297 0.176242 0.00534066
0.999969 0.176242 0.00534066
0.00534066 0.253849 0.00534066
0.0935988 0.253849 0.00534066
0.176242 0.253849 0.00534066
0.253849 0.253849 0.00534066
0.430167 0.253849 0.00534066
0.717678 0.253849 0.00534066
0.859037 0.253849 0.00534066
0.943297 0.253849 0.00534066
0.999969 0.253849 0.00534066
0.00534066 0.430167 0.00534066
0.0935988 0.430167 0.00534066
0.176242 0.430167 0.00534066
0.253849 0.430167 0.00534066
0.430167 0.430167 0.00534066
0.717678 0.430167 0.00534066
0.859037 0.430167 0.00534066
0.943297 0.430167 0.00534066
0.999969 0.430167 0.00534066
0.00534066 0.717678 0.00534066
0.0935988 0.717678 0.00534066
0.176242 0.717678 0.00534066
0.253849 0.717678 0.00534066
0.430167 0.717678 0.00534066
0.717678 0.717678 0.00534066
0.859037 0.717678 0.00534066
0.943297 0.717678 0.00534066
0.999969 0.717678 0.00534066
0.00534066 0.859037 0.00534066
0.0935988 0.859037 0.00534066
0.176242 0.859037 0.00534066
0.253849 0.859037 0.00534066
0.430167 0.859037 0.00534066
0.717678 0.859037 0.00534066
0.859037 0.859037 0.00534066
0.943297 0.859037 0.00534066
0.999969 0.859037 0.00534066
0.00534066 0.943297 0.00534066
0.0935988 0.943297 0.00534066
0.176242 0.943297 0.00534066
0.253849 0.943297 0.00534066
0.430167 0.943297 0.00534066
0.717678 0.943297 0.00534066
0.859037 0.943297 0.00534066
0.943297 0.943297 0.00534066
0.999969 0.943297 0.00534066
0.00534066 0.999969 0.00534066
0.0935988 0.999969 0.00534066
0.176242 0.999969 0.00534066
0.253849 0.999969 0.00534066
0.430167 0.999969 0.00534066
0.717678 0.999969 0.00534066
0.859037 0.999969 0.00534066
0.943297 0.999969 0.00534066
0.999969 0.999969 0.00534066
0.00534066 0.00534066 0.0935988
0.0935988 0.00534066 0.0935988
0.176242 0.00534066 0.0935988
0.253849 0.00534066 0.0935988
0.430167 0.00534066 0.0935988
0.717678 0.00534066 0.0935988
0.859037 0.00534066 0.0935988
0.943297 0.00534066 0.0935988
0.999969 0.00534066 0.0935988
0.00534066 0.0935988 0.0935988
0.0935988 0.0935988 0.0935988
0.176242 0.0935988 0.0935988
0.253849 0.0935988 0.0935988
0.430167 0.0935988 0.0935988
0.717678 0.0935988 0.0935988
0.859037 0.0935988 0.0935988
0.943297 0.0935988 0.0935988
0.999969 0.0935988 0.0935988
0.00534066 0.176242 0.0935988
0.0935988 0.176242 0.0935988
0.176242 0.176242 0.0935988
0.253849 0.176242 0.0935988
0.430167 0.176242 0.0935988
0.717678 0.176242 0.0935988
0.859037 0.176242 0.0935988
0.943297 0.176242 0.0935988
0.999969 0.176242 0.0935988
0.00534066 0.253849 0.0935988
0.0935988 0.253849 0.0935988
0.176242 0.253849 0.0935988
0.253849 0.253849 0.0935988
0.430167 0.253849 0.0935988
0.717678 0.253849 0.0935988
0.859037 0.253849 0.0935988
0.943297 0.253849 0.0935988
0.999969 0.253849 0.0935988
0.00534066 0.430167 0.0935988
0.0935988 0.430167 0.0935988
0.176242 0.430167 0.0935988
0.253849 0.430167 0.0935988
0.430167 0.430167 0.0935988
0.717678 0.430167 0.0935988
0.859037 0.430167 0.0935988
0.943297 0.430167 0.0935988
0.999969 0.430167 0.0935988
0.00534066 0.717678 0.0935988
0.0935988 0.717678 0.0935988
0.176242 0.717678 0.0935988
0.253849 0.717678 0.0935988
0.430167 0.717678 0.0935988
0.717678 0.717678 0.0935988
0.859037 0.717678 0.0935988
0.943297 0.717678 0.0935988
0.999969 0.717678 0.0935988
0.00534066 0.859037 0.0935988
0.0935988 0.859037 0.0935988
0.176242 0.859037 0.0935988
0.253849 0.859037 0.0935988
0.430167 0.859037 0.0935988
0.717678 0.859037 0.0935988
0.859037 0.859037 0.0935988
0.943297 0.859037 0.0935988
0.999969 0.859037 0.0935988
0.00534066 0.943297 0.0935988
0.0935988 0.943297 0.0935988
0.176242 0.943297 0.0935988
0.253849 0.943297 0.0935988
0.430167 0.943297 0.0935988
0.717678 0.943297 0.0935988
0.859037 0.943297 0.0935988
0.943297 0.943297 0.0935988
0.999969 0.943297 0.0935988
0.00534066 0.999969 0.0935988
0.0935988 0.999969 0.0935988
0.176242 0.999969 0.0935988
0.253849 0.999969 0.0935988
0.430167 0.999969 0.0935988
0.717678 0.999969 0.0935988
0.859037 0.999969 0.0935988
0.943297 0.999969 0.0935988
0.999969 0.999969 0.0935988
0.00534066 0.00534066 0.176242
0.0935988 0.00534066 0.176242
0.176242 0.00534066 0.176242
0.253849 0.00534066 0.176242
0.430167 0.00534066 0.176242
0.717678 0.00534066 0.176242
0.859037 0.00534066 0.176242
0.943297 0.00534066 0.176242
0.999969 0.00534066 0.176242
0.00534066 0.0935988 0.176242
0.0935988 0.0935988 0.176242
0.176242 0.0935988 0.176242
0.253849 0.0935988 0.176242
0.430167 0.0935988 0.176242
0.717678 0.0935988 0.176242
0.859037 0.0935988 0.176242
0.943297 0.0935988 0.176242
0.999969 0.0935988 0.176242
0.00534066 0.176242 0.176242
0.0935988 0.176242 0.176242
0.176242 0.176242 0.176242
0.253849 0.176242 0.176242
0.430167 0.176242 0.176242
0.717678 0.176242 0.176242
0.859037 0.176242 0.176242
0.943297 0.176242 0.176242
0.999969 0.176242 0.176242
0.00534066 0.253849 0.176242
0.0935988 0.253849 0.176242
0.176242 0.253849 0.176242
0.253849 0.253849 0.176242
0.430167 0.253849 0.176242
0.717678 0.253849 0.176242
0.859037 0.253849 0.176242
0.943297 0.253849 0.176242
0.999969 0.253849 0.176242
0.00534066 0.430167 0.176242
0.0935988 0.430167 0.176242
0.176242 0.430167 0.176242
0.253849 0.430167 0.176242
0.430167 0.430167 0.176242
0.717678 0.430167 0.176242
0.859037 0.430167 0.176242
0.943297 0.430167 0.176242
0.999969 0.430167 0.176242
0.00534066 0.717678 0.176242
0.0935988 0.717678 0.176242
0.176242 0.717678 0.176242
0.253849 0.717678 0.176242
0.430167 0.717678 0.176242
0.717678 0.717678 0.176242
0.859037 0.717678 0.176242
0.943297 0.717678 0.176242
0.999969 0.717678 0.176242
0.00534066 0.859037 0.176242
0.0935988 0.859037 0.176242
0.176242 0.859037 0.176242
0.253849 0.859037 0.176242
0.430167 0.859037 0.176242
0.717678 0.859037 0.176242
0.859037 0.859037 0.176242
0.943297 0.859037 0.176242
0.999969 0.859037 0.176242
0.00534066 0.943297 0.176242
0.0935988 0.943297 0.176242
0.176242 0.943297 0.176242
0.253849 0.943297 0.176242
0.430167 0.943297 0.176242
0.717678 0.943297 0.176242
0.859037 0.943297 0.176242
0.943297 0.943297 0.176242
0.999969 0.943297 0.176242
0.00534066 0.999969 0.176242
0.0935988 0.999969 0.176242
0.176242 0.999969 0.176242
0.253849 0.999969 0.176242
0.430167 0.999969 0.176242
0.717678 0.999969 0.176242
0.859037 0.999969 0.176242
0.943297 0.999969 0.176242
0.999969 0.999969 0.176242
0.00534066 0.00534066 0.253849
0.0935988 0.00534066 0.253849
0.176242 0.00534066 0.253849
0.253849 0.00534066 0.253849
0.430167 0.00534066 0.253849
0.717678 0.00534066 0.253849
0.859037 0.00534066 0.253849
0.943297 0.00534066 0.253849
0.999969 0.00534066 0.253849
0.00534066 0.0935988 0.253849
0.0935988 0.0935988 0.253849
0.176242 0.0935988 0.253849
0.253849 0.0935988 0.253849
0.430167 0.0935988 0.253849
0.717678 0.0935988 0.253849
0.859037 0.0935988 0.253849
0.943297 0.0935988 0.253849
0.999969 0.0935988 0.253849
0.00534066 0.176242 0.253849
0.0935988 0.176242 0.253849
0.176242 0.176242 0.253849
0.253849 0.176242 0.253849
0.430167 0.176242 0.253849
0.717678 0.176242 0.253849
0.859037 0.176242 0.253849
0.943297 0.176242 0.253849
0.999969 0.176242 0.253849
0.00534066 0.253849 0.253849
0.0935988 0.253849 0.253849
0.176242 0.253849 0.253849
0.253849 0.253849 0.253849
0.430167 0.253849 0.253849
0.717678 0.253849 0.253849
0.859037 0.253849 0.253849
0.943297 0.253849 0.253849
0.999969 0.253849 0.253849
0.00534066 0.430167 0.253849
0.0935988 0.430167 0.253849
0.176242 0.430167 0.253849
0.253849 0.430167 0.253849
0.430167 0.430167 0.253849
0.717678 0.430167 0.253849
0.859037 0.430167 0.253849
0.943297 0.430167 0.253849
0.999969 0.430167 0.253849
0.00534066 0.717678 0.253849
0.0935988 0.717678 0.253849
0.176242 0.717678 0.253849
0.253849 0.717678 0.253849
0.430167 0.717678 0.253849
0.717678 0.717678 0.253849
0.859037 0.717678 0.253849
0.943297 0.717678 0.253849
0.999969 0.717678 0.253849
0.00534066 0.859037 0.253849
0.0935988 0.859037 0.253849
0.176242 0.859037 0.253849
0.253849 0.859037 0.253849
0.430167 0.859037 0.253849
0.717678 0.859037 0.253849
0.859037 0.859037 0.253849
0.943297 0.859037 0.253849
0.999969 0.859037 0.253849
0.00534066 0.943297 0.253849
0.0935988 0.943297 0.253849
0.176242 0.943297 0.253849
0.253849 0.943297 0.253849
0.430167 0.943297 0.253849
0.717678 0.943297 0.253849
0.859037 0.943297 0.253849
0.943297 0.943297 0.253849
0.999969 0.943297 0.253849
0.00534066 0.999969 0.253849
0.0935988 0.999969 0.253849
0.176242 0.999969 0.253849
0.253849 0.999969 0.253849
0.430167 0.999969 0.253849
0.717678 0.999969 0.253849
0.859037 0.999969 0.253849
0.943297 0.999969 0.253849
0.999969 0.999969 0.253849
0.00534066 0.00534066 0.430167
0.0935988 0.00534066 0.430167
0.176242 0.00534066 0.430167
0.253849 0.00534066 0.430167
0.430167 0.00534066 0.430167
0.717678 0.00534066 0.430167
0.859037 0.00534066 0.430167
0.943297 0.00534066 0.430167
0.999969 0.00534066 0.430167
0.00534066 0.0935988 0.430167
0.0935988 0.0935988 0.430167
0.176242 0.0935988 0.430167
0.253849 0.0935988 0.430167
0.430167 0.0935988 0.430167
0.717678 0.0935988 0.430167
0.859037 0.0935988 0.430167
0.943297 0.0935988 0.430167
0.999969 0.0935988 0.430167
0.00534066 0.176242 0.430167
0.0935988 0.176242 0.430167
0.176242 0.176242 0.430167
0.253849 0.176242 0.430167
0.430167 0.176242 0.430167
0.717678 0.176242 0.430167
0.859037 0.176242 0.430167
0.943297 0.176242 0.430167
0.999969 0.176242 0.430167
0.00534066 0.253849 0.430167
0.0935988 0.253849 0.430167
0.176242 0.253849 0.430167
0.253849 0.253849 0.430167
0.430167 0.253849 0.430167
0.717678 0.253849 0.430167
0.859037 0.253849 0.430167
0.943297 0.253849 0.430167
0.999969 0.253849 0.430167
0.00534066 0.430167 0.430167
0.0935988 0.430167 0.430167
0.176242 0.430167 0.430167
0.253849 0.430167 0.430167
0.430167 0.430167 0.430167
0.717678 0.430167 0.430167
0.859037 0.430167 0.430167
0.943297 0.430167 0.430167
0.999969 0.430167 0.430167
0.00534066 0.717678 0.430167
0.0935988 0.717678 0.430167
0.176242 0.717678 0.430167
0.253849 0.717678 0.430167
0.430167 0.717678 0.430167
0.717678 0.717678 0.430167
0.859037 0.717678 0.430167
0.943297 0.717678 0.430167
0.999969 0.717678 0.430167
0.00534066 0.859037 0.430167
0.0935988 0.859037 0.430167
0.176242 0.859037 0.430167
0.253849 0.859037 0.430167
0.430167 0.859037 0.430167
0.717678 0.859037 0.430167
0.859037 0.859037 0.430167
0.943297 0.859037 0.430167
0.999969 0.859037 0.430167
0.00534066 0.943297 0.430167
0.0935988 0.943297 0.430167
0.176242 0.943297 0.430167
0.253849 0.943297 0.430167
0.430167 0.943297 0.430167
0.717678 0.943297 0.430167
0.859037 0.943297 0.430167
0.943297 0.943297 0.430167
0.999969 0.943297 0.430167
0.00534066 0.999969 0.430167
0.0935988 0.999969 0.430167
0.176242 0.999969 0.430167
0.253849 0.999969 0.430167
0.430167 0.999969 0.430167
0.717678 0.999969 0.430167
0.859037 0.999969 0.430167
0.943297 0.999969 0.430167
0.999969 0.999969 0.430167
0.00534066 0.00534066 0.717678
0.0935988 0.00534066 0.717678
0.176242 0.00534066 0.717678
0.253849 0.00534066 0.717678
0.430167 0.00534066 0.717678
0.717678 0.00534066 0.717678
0.859037 0.00534066 0.717678
0.943297 0.00534066 0.717678
0.999969 0.00534066 0.717678
0.00534066 0.0935988 0.717678
0.0935988 0.0935988 0.717678
0.176242 0.0935988 0.717678
0.253849 0.0935988 0.717678
0.430167 0.0935988 0.717678
0.717678 0.0935988 0.717678
0.859037 0.0935988 0.717678
0.943297 0.0935988 0.717678
0.999969 0.0935988 0.717678
0.00534066 0.176242 0.717678
0.0935988 0.176242 0.717678
0.176242 0.176242 0.717678
0.253849 0.176242 0.717678
0.430167 0.176242 0.717678
0.717678 0.176242 0.717678
0.859037 0.176242 0.717678
0.943297 0.176242 0.717678
0.999969 0.176242 0.717678
0.00534066 0.253849 0.717678
0.0935988 0.253849 0.717678
0.176242 0.253849 0.717678
0.253849 0.253849 0.717678
0.430167 0.253849 0.717678
0.717678 0.253849 0.717678
0.859037 0.253849 0.717678
0.943297 0.253849 0.717678
0.999969 0.253849 0.717678
0.00534066 0.430167 0.717678
0.0935988 0.430167 0.717678
0.176242 0.430167 0.717678
0.253849 0.430167 0.717678
0.430167 0.430167 0.717678
0.717678 0.430167 0.717678
0.859037 0.430167 0.717678
0.943297 0.430167 0.717678
0.999969 0.430167 0.717678
0.00534066 0.717678 0.717678
0.0935988 0.717678 0.717678
0.176242 0.717678 0.717678
0.253849 0.717678 0.717678
0.430167 0.717678 0.717678
0.717678 0.717678 0.717678
0.859037 0.717678 0.717678
0.943297 0.717678 0.717678
0.999969 0.717678 0.717678
0.00534066 0.859037 0.717678
0.0935988 0.859037 0.717678
0.176242 0.859037 0.717678
0.253849 0.859037 0.717678
0.430167 0.859037 0.717678
0.717678 0.859037 0.717678
0.859037 0.859037 0.717678
0.943297 0.859037 0.717678
0.999969 0.859037 0.717678
0.00534066 0.943297 0.717678
0.0935988 0.943297 0.717678
0.176242 0.943297 0.717678
0.253849 0.943297 0.717678
0.430167 0.943297 0.717678
0.717678 0.943297 0.717678
0.859037 0.943297 0.717678
0.943297 0.943297 0.717678
0.999969 0.943297 0.717678
0.00534066 0.999969 0.717678
0.0935988 0.999969 0.717678
0.176242 0.999969 0.717678
0.253849 0.999969 0.717678
0.430167 0.999969 0.717678
0.717678 0.999969 0.717678
0.859037 0.999969 0.717678
0.943297 0.999969 0.717678
0.999969 0.999969 0.717678
0.00534066 0.00534066 0.859037
0.0935988 0.00534066 0.859037
0.176242 0.00534066 0.859037
0.253849 0.00534066 0.859037
0.430167 0.00534066 0.859037
0.717678 0.00534066 0.859037
0.859037 0.00534066 0.859037
0.943297 0.00534066 0.859037
0.999969 0.00534066 0.859037
0.00534066 0.0935988 0.859037
0.0935988 0.0935988 0.859037
0.176242 0.0935988 0.859037
0.253849 0.0935988 0.859037
0.430167 0.0935988 0.859037
0.717678 0.0935988 0.859037
0.859037 0.0935988 0.859037
0.943297 0.0935988 0.859037
0.999969 0.0935988 0.859037
0.00534066 0.176242 0.859037
0.0935988 0.176242 0.859037
0.176242 0.176242 0.859037
0.253849 0.176242 0.859037
0.430167 0.176242 0.859037
0.717678 0.176242 0.859037
0.859037 0.176242 0.859037
0.943297 0.176242 0.859037
0.999969 0.176242 0.859037
0.00534066 0.253849 0.859037
0.0935988 0.253849 0.859037
0.176242 0.253849 0.859037
0.253849 0.253849 0.859037
0.430167 0.253849 0.859037
0.717678 0.253849 0.859037
0.859037 0.253849 0.859037
0.943297 0.253849 0.859037
0.999969 0.253849 0.859037
0.00534066 0.430167 0.859037
0.0935988 0.430167 0.859037
0.176242 0.430167 0.859037
0.253849 0.430167 0.859037
0.430167 0.430167 0.859037
0.717678 0.430167 0.859037
0.859037 0.430167 0.859037
0.943297 0.430167 0.859037
0.999969 0.430167 0.859037
0.00534066 0.717678 0.859037
0.0935988 0.717678 0.859037
0.176242 0.717678 0.859037
0.253849 0.717678 0.859037
0.430167 0.717678 0.859037
0.717678 0.717678 0.859037
0.859037 0.717678 0.859037
0.943297 0.717678 0.859037
0.999969 0.717678 0.859037
0.00534066 0.859037 0.859037
0.0935988 0.859037 0.859037
0.176242 0.859037 0.859037
0.253849 0.859037 0.859037
0.430167 0.859037 0.859037
0.717678 0.859037 0.859037
0.859037 0.859037 0.859037
0.943297 0.859037 0.859037
0.999969 0.859037 0.859037
0.00534066 0.943297 0.859037
0.0935988 0.943297 0.859037
0.176242 0.943297 0.859037
0.253849 0.943297 0.859037
0.430167 0.943297 0.859037
0.717678 0.943297 0.859037
0.859037 0.943297 0.859037
0.943297 0.943297 0.859037
0.999969 0.943297 0.859037
0.00534066 0.999969 0.859037
0.0935988 0.999969 0.859037
0.176242 0.999969 0.859037
0.253849 0.999969 0.859037
0.430167 0.999969 0.859037
0.717678 0.999969 0.859037
0.859037 0.999969 0.859037
0.943297 0.999969 0.859037
0.999969 0.999969 0.859037
0.00534066 0.00534066 0.943297
0.0935988 0.00534066 0.943297
0.176242 0.00534066 0.943297
0.253849 0.00534066 0.943297
0.430167 0.00534066 0.943297
0.717678 0.00534066 0.943297
0.859037 0.00534066 0.943297
0.943297 0.00534066 0.943297
0.999969 0.00534066 0.943297
0.00534066 0.0935988 0.943297
0.0935988 0.0935988 0.943297
0.176242 0.0935988 0.943297
0.253849 0.0935988 0.943297
0.430167 0.0935988 0.943297
0.717678 0.0935988 0.943297
0.859037 0.0935988 0.943297
0.943297 0.0935988 0.943297
0.999969 0.0935988 0.943297
0.00534066 0.176242 0.943297
0.0935988 0.176242 0.943297
0.176242 0.176242 0.943297
0.253849 0.176242 0.943297
0.430167 0.176242 0.943297
0.717678 0.176242 0.943297
0.859037 0.176242 0.943297
0.943297 0.176242 0.943297
0.999969 0.176242 0.943297
0.00534066 0.253849 0.943297
0.0935988 0.253849 0.943297
0.176242 0.253849 0.943297
0.253849 0.253849 0.943297
0.430167 0.253849 0.943297
0.717678 0.253849 0.943297
0.859037 0.253849 0.943297
0.943297 0.253849 0.943297
0.999969 0.253849 0.943297
0.00534066 0.430167 0.943297
0.0935988 0.430167 0.943297
0.176242 0.430167 0.943297
0.253849 0.430167 0.943297
0.430167 0.430167 0.943297
0.717678 0.430167 0.943297
0.859037 0.430167 0.943297
0.943297 0.430167 0.943297
0.999969 0.430167 0.943297
0.00534066 0.717678 0.943297
0.0935988 0.717678 0.943297
0.176242 0.717678 0.943297
0.253849 0.717678 0.943297
0.430167 0.717678 0.943297
0.717678 0.717678 0.943297
0.859037 0.717678 0.943297
0.943297 0.717678 0.943297
0.999969 0.717678 0.943297
0.00534066 0.859037 0.943297
0.0935988 0.859037 0.943297
0.176242 0.859037 0.943297
0.253849 0.859037 0.943297
0.430167 0.859037 0.943297
0.717678 0.859037 0.943297
0.859037 0.859037 0.943297
0.943297 0.859037 0.943297
0.999969 0.859037 0.943297
0.00534066 0.943297 0.943297
0.0935988 0.943297 0.943297
0.176242 0.943297 0.943297
0.253849 0.943297 0.943297
0.430167 0.943297 0.943297
0.717678 0.943297 0.943297
0.859037 0.943297 0.943297
0.943297 0.943297 0.943297
0.999969 0.943297 0.943297
0.00534066 0.999969 0.943297
0.0935988 0.999969 0.943297
0.176242 0.999969 0.943297
0.253849 0.999969 0.943297
0.430167 0.999969 0.943297
0.717678 0.999969 0.943297
0.859037 0.999969 0.943297
0.943297 0.999969 0.943297
0.999969 0.999969 0.943297
0.00534066 0.00534066 0.999969
0.0935988 0.00534066 0.999969
0.176242 0.00534066 0.999969
0.253849 0.00534066 0.999969
0.430167 0.00534066 0.999969
0.717678 0.00534066 0.999969
0.859037 0.00534066 0.999969
0.943297 0.00534066 0.999969
0.999969 0.00534066 0.999969
0.00534066 0.0935988 0.999969
0.0935988 0.0935988 0.999969
0.176242 0.0935988 0.999969
0.253849 0.0935988 0.999969
0.430167 0.0935988 0.999969
0.717678 0.0935988 0.999969
0.859037 0.0935988 0.999969
0.943297 0.0935988 0.999969
0.999969 0.0935988 0.999969
0.00534066 0.176242 0.999969
0.0935988 0.176242 0.999969
0.176242 0.176242 0.999969
0.253849 0.176242 0.999969
0.430167 0.176242 0.999969
0.717678 0.176242 0.999969
0.859037 0.176242 0.999969
0.943297 0.176242 0.999969
0.999969 0.176242 0.999969
0.00534066 0.253849 0.999969
0.0935988 0.253849 0.999969
0.176242 0.253849 0.999969
0.253849 0.253849 0.999969
0.430167 0.253849 0.999969
0.717678 0.253849 0.999969
0.859037 0.253849 0.999969
0.943297 0.253849 0.999969
0.999969 0.253849 0.999969
0.00534066 0.430167 0.999969
0.0935988 0.430167 0.999969
0.176242 0.430167 0.999969
0.253849 0.430167 0.999969
0.430167 0.430167 0.999969
0.717678 0.430167 0.999969
0.859037 0.430167 0.999969
0.943297 0.430167 0.999969
0.999969 0.430167 0.999969
0.00534066 0.717678 0.999969
0.0935988 0.717678 0.999969
0.176242 0.717678 0.999969
0.253849 0.717678 0.999969
0.430167 0.717678 0.999969
0.717678 0.717678 0.999969
0.859037 0.717678 0.999969
0.943297 0.717678 0.999969
0.999969 0.717678 0.999969
0.00534066 0.859037 0.999969
0.0935988 0.859037 0.999969
0.176242 0.859037 0.999969
0.253849 0.859037 0.999969
0.430167 0.859037 0.999969
0.717678 0.859037 0.999969
0.859037 0.859037 0.999969
0.943297 0.859037 0.999969
0.999969 0.859037 0.999969
0.00534066 0.943297 0.999969
0.0935988 0.943297 0.999969
0.176242 0.943297 0.999969
0.253849 0.943297 0.999969
0.430167 0.943297 0.999969
0.717678 0.943297 0.999969
0.859037 0.943297 0.999969
0.943297 0.943297 0.999969
0.999969 0.943297 0.999969
0.00534066 0.999969 0.999969
0.0935988 0.999969 0.999969
0.176242 0.999969 0.999969
0.253849 0.999969 0.999969
0.430167 0.999969 0.999969
0.717678 0.999969 0.999969
0.859037 0.999969 0.999969
0.943297 0.999969 0.999969
0.999969 0.999969 0.999969
