Assets/HDRPipeline/Grades/Identity_slope22_1.Marcie_Log2.cube
TITLE "Generated by Resolve"
LUT_3D_SIZE 5
0.00534066 0.00534066 0.00534066
0.176242 0.00534066 0.00534066
0.430167 0.00534066 0.00534066
0.859037 0.00534066 0.00534066
0.999969 0.00534066 0.00534066
0.00534066 0.176242 0.00534066
0.176242 0.176242 0.00534066
0.430167 0.176242 0.00534066
0.859037 0.176242 0.00534066
0.999969 0.176242 0.00534066
0.00534066 0.430167 0.00534066
0.176242 0.430167 0.00534066
0.430167 0.430167 0.00534066
0.859037 0.430167 0.00534066
0.999969 0.430167 0.00534066
0.00534066 0.859037 0.00534066
0.176242 0.859037 0.00534066
0.430167 0.859037 0.00534066
0.859037 0.859037 0.00534066
0.999969 0.859037 0.00534066
0.00534066 0.999969 0.00534066
0.176242 0.999969 0.00534066
0.430167 0.999969 0.00534066
0.859037 0.999969 0.00534066
0.999969 0.999969 0.00534066
0.00534066 0.00534066 0.176242
0.176242 0.00534066 0.176242
0.430167 0.00534066 0.176242
0.859037 0.00534066 0.176242
0.999969 0.00534066 0.176242
0.00534066 0.176242 0.176242
0.176242 0.176242 0.176242
0.430167 0.176242 0.176242
0.859037 0.176242 0.176242
0.999969 0.176242 0.176242
0.00534066 0.430167 0.176242
0.176242 0.430167 0.176242
0.430167 0.430167 0.176242
0.859037 0.430167 0.176242
0.999969 0.430167 0.176242
0.00534066 0.859037 0.176242
0.176242 0.859037 0.176242
0.430167 0.859037 0.176242
0.859037 0.859037 0.176242
0.999969 0.859037 0.176242
0.00534066 0.999969 0.176242
0.176242 0.999969 0.176242
0.430167 0.999969 0.176242
0.859037 0.999969 0.176242
0.999969 0.999969 0.176242
0.00534066 0.00534066 0.430167
0.176242 0.00534066 0.430167
0.430167 0.00534066 0.430167
0.859037 0.00534066 0.430167
0.999969 0.00534066 0.430167
0.00534066 0.176242 0.430167
0.176242 0.176242 0.430167
0.430167 0.176242 0.430167
0.859037 0.176242 0.430167
0.999969 0.176242 0.430167
0.00534066 0.430167 0.430167
0.176242 0.430167 0.430167
0.430167 0.430167 0.430167
0.859037 0.430167 0.430167
0.999969 0.430167 0.430167
0.00534066 0.859037 0.430167
0.176242 0.859037 0.430167
0.430167 0.859037 0.430167
0.859037 0.859037 0.430167
0.999969 0.859037 0.430167
0.00534066 0.999969 0.430167
0.176242 0.999969 0.430167
0.430167 0.999969 0.430167
0.859037 0.999969 0.430167
0.999969 0.999969 0.430167
0.00534066 0.00534066 0.859037
0.176242 0.00534066 0.859037
0.430167 0.00534066 0.859037
0.859037 0.00534066 0.859037
0.999969 0.00534066 0.859037
0.00534066 0.176242 0.859037
0.176242 0.176242 0.859037
0.430167 0.176242 0.859037
0.859037 0.176242 0.859037
0.999969 0.176242 0.859037
0.00534066 0.430167 0.859037
0.176242 0.430167 0.859037
0.430167 0.430167 0.859037
0.859037 0.430167 0.859037
0.999969 0.430167 0.859037
0.00534066 0.859037 0.859037
0.176242 0.859037 0.859037
0.430167 0.859037 0.859037
0.859037 0.859037 0.859037
0.999969 0.859037 0.859037
0.00534066 0.999969 0.859037
0.176242 0.999969 0.859037
0.430167 0.999969 0.859037
0.859037 0.999969 0.859037
0.999969 0.999969 0.859037
0.00534066 0.00534066 0.999969
0.176242 0.00534066 0.999969
0.430167 0.00534066 0.999969
0.859037 0.00534066 0.999969
0.999969 0.00534066 0.999969
0.00534066 0.176242 0.999969
0.176242 0.176242 0.999969
0.430167 0.176242 0.999969
0.859037 0.176242 0.999969
0.999969 0.176242 0.999969
0.00534066 0.430167 0.999969
0.176242 0.430167 0.999969
0.430167 0.430167 0.999969
0.859037 0.430167 0.999969
0.999969 0.430167 0.999969
0.00534066 0.859037 0.999969
0.176242 0.859037 0.999969
0.430167 0.859037 0.999969
0.859037 0.859037 0.999969
0.999969 0.859037 0.999969
0.00534066 0.999969 0.999969
0.176242 0.999969 0.999969
0.430167 0.999969 0.999969
0.859037 0.999969 0.999969
0.999969 0.999969 0.999969
