Assets/HDRPipeline/Grades/Identity_slope22_1.Marcie_Log2.cube
TITLE "Generated by Resolve"
LUT_3D_SIZE 33
0.00534066 0.00534066 0.00534066
0.0177615 0.00534066 0.00534066
0.0426184 0.00534066 0.00534066
0.0689555 0.00534066 0.00534066
0.0935988 0.00534066 0.00534066
0.116258 0.00534066 0.00534066
0.137285 0.00534066 0.00534066
0.157137 0.00534066 0.00534066
0.176242 0.00534066 0.00534066
0.19498 0.00534066 0.00534066
0.213779 0.00534066 0.00534066
0.233143 0.00534066 0.00534066
0.253849 0.00534066 0.00534066
0.277378 0.00534066 0.00534066
0.308171 0.00534066 0.00534066
0.370123 0.00534066 0.00534066
0.430167 0.00534066 0.00534066
0.510918 0.00534066 0.00534066
0.598291 0.00534066 0.00534066
0.664576 0.00534066 0.00534066
0.717678 0.00534066 0.00534066
0.761654 0.00534066 0.00534066
0.798901 0.00534066 0.00534066
0.831006 0.00534066 0.00534066
0.859037 0.00534066 0.00534066
0.883772 0.00534066 0.00534066
0.905776 0.00534066 0.00534066
0.92549 0.00534066 0.00534066
0.943297 0.00534066 0.00534066
0.959426 0.00534066 0.00534066
0.974136 0.00534066 0.00534066
0.987594 0.00534066 0.00534066
0.999969 0.00534066 0.00534066
0.00534066 0.0177615 0.00534066
0.0177615 0.0177615 0.00534066
0.0426184 0.0177615 0.00534066
0.0689555 0.0177615 0.00534066
0.0935988 0.0177615 0.00534066
0.116258 0.0177615 0.00534066
0.137285 0.0177615 0.00534066
0.157137 0.0177615 0.00534066
0.176242 0.0177615 0.00534066
0.19498 0.0177615 0.00534066
0.213779 0.0177615 0.00534066
0.233143 0.0177615 0.00534066
0.253849 0.0177615 0.00534066
0.277378 0.0177615 0.00534066
0.308171 0.0177615 0.00534066
0.370123 0.0177615 0.00534066
0.430167 0.0177615 0.00534066
0.510918 0.0177615 0.00534066
0.598291 0.0177615 0.00534066
0.664576 0.0177615 0.00534066
0.717678 0.0177615 0.00534066
0.761654 0.0177615 0.00534066
0.798901 0.0177615 0.00534066
0.831006 0.0177615 0.00534066
0.859037 0.0177615 0.00534066
0.883772 0.0177615 0.00534066
0.905776 0.0177615 0.00534066
0.92549 0.0177615 0.00534066
0.943297 0.0177615 0.00534066
0.959426 0.0177615 0.00534066
0.974136 0.0177615 0.00534066
0.987594 0.0177615 0.00534066
0.999969 0.0177615 0.00534066
0.00534066 0.0426184 0.00534066
0.0177615 0.0426184 0.00534066
0.0426184 0.0426184 0.00534066
0.0689555 0.0426184 0.00534066
0.0935988 0.0426184 0.00534066
0.116258 0.0426184 0.00534066
0.137285 0.0426184 0.00534066
0.157137 0.0426184 0.00534066
0.176242 0.0426184 0.00534066
0.19498 0.0426184 0.00534066
0.213779 0.0426184 0.00534066
0.233143 0.0426184 0.00534066
0.253849 0.0426184 0.00534066
0.277378 0.0426184 0.00534066
0.308171 0.0426184 0.00534066
0.370123 0.0426184 0.00534066
0.430167 0.0426184 0.00534066
0.510918 0.0426184 0.00534066
0.598291 0.0426184 0.00534066
0.664576 0.0426184 0.00534066
0.717678 0.0426184 0.00534066
0.761654 0.0426184 0.00534066
0.798901 0.0426184 0.00534066
0.831006 0.0426184 0.00534066
0.859037 0.0426184 0.00534066
0.883772 0.0426184 0.00534066
0.905776 0.0426184 0.00534066
0.92549 0.0426184 0.00534066
0.943297 0.0426184 0.00534066
0.959426 0.0426184 0.00534066
0.974136 0.0426184 0.00534066
0.987594 0.0426184 0.00534066
0.999969 0.0426184 0.00534066
0.00534066 0.0689555 0.00534066
0.0177615 0.0689555 0.00534066
0.0426184 0.0689555 0.00534066
0.0689555 0.0689555 0.00534066
0.0935988 0.0689555 0.00534066
0.116258 0.0689555 0.00534066
0.137285 0.0689555 0.00534066
0.157137 0.0689555 0.00534066
0.176242 0.0689555 0.00534066
0.19498 0.0689555 0.00534066
0.213779 0.0689555 0.00534066
0.233143 0.0689555 0.00534066
0.253849 0.0689555 0.00534066
0.277378 0.0689555 0.00534066
0.308171 0.0689555 0.00534066
0.370123 0.0689555 0.00534066
0.430167 0.0689555 0.00534066
0.510918 0.0689555 0.00534066
0.598291 0.0689555 0.00534066
0.664576 0.0689555 0.00534066
0.717678 0.0689555 0.00534066
0.761654 0.0689555 0.00534066
0.798901 0.0689555 0.00534066
0.831006 0.0689555 0.00534066
0.859037 0.0689555 0.00534066
0.883772 0.0689555 0.00534066
0.905776 0.0689555 0.00534066
0.92549 0.0689555 0.00534066
0.943297 0.0689555 0.00534066
0.959426 0.0689555 0.00534066
0.974136 0.0689555 0.00534066
0.987594 0.0689555 0.00534066
0.999969 0.0689555 0.00534066
0.00534066 0.0935988 0.00534066
0.0177615 0.0935988 0.00534066
0.0426184 0.0935988 0.00534066
0.0689555 0.0935988 0.00534066
0.0935988 0.0935988 0.00534066
0.116258 0.0935988 0.00534066
0.137285 0.0935988 0.00534066
0.157137 0.0935988 0.00534066
0.176242 0.0935988 0.00534066
0.19498 0.0935988 0.00534066
0.213779 0.0935988 0.00534066
0.233143 0.0935988 0.00534066
0.253849 0.0935988 0.00534066
0.277378 0.0935988 0.00534066
0.308171 0.0935988 0.00534066
0.370123 0.0935988 0.00534066
0.430167 0.0935988 0.00534066
0.510918 0.0935988 0.00534066
0.598291 0.0935988 0.00534066
0.664576 0.0935988 0.00534066
0.717678 0.0935988 0.00534066
0.761654 0.0935988 0.00534066
0.798901 0.0935988 0.00534066
0.831006 0.0935988 0.00534066
0.859037 0.0935988 0.00534066
0.883772 0.0935988 0.00534066
0.905776 0.0935988 0.00534066
0.92549 0.0935988 0.00534066
0.943297 0.0935988 0.00534066
0.959426 0.0935988 0.00534066
0.974136 0.0935988 0.00534066
0.987594 0.0935988 0.00534066
0.999969 0.0935988 0.00534066
0.00534066 0.116258 0.00534066
0.0177615 0.116258 0.00534066
0.0426184 0.116258 0.00534066
0.0689555 0.116258 0.00534066
0.0935988 0.116258 0.00534066
0.116258 0.116258 0.00534066
0.137285 0.116258 0.00534066
0.157137 0.116258 0.00534066
0.176242 0.116258 0.00534066
0.19498 0.116258 0.00534066
0.213779 0.116258 0.00534066
0.233143 0.116258 0.00534066
0.253849 0.116258 0.00534066
0.277378 0.116258 0.00534066
0.308171 0.116258 0.00534066
0.370123 0.116258 0.00534066
0.430167 0.116258 0.00534066
0.510918 0.116258 0.00534066
0.598291 0.116258 0.00534066
0.664576 0.116258 0.00534066
0.717678 0.116258 0.00534066
0.761654 0.116258 0.00534066
0.798901 0.116258 0.00534066
0.831006 0.116258 0.00534066
0.859037 0.116258 0.00534066
0.883772 0.116258 0.00534066
0.905776 0.116258 0.00534066
0.92549 0.116258 0.00534066
0.943297 0.116258 0.00534066
0.959426 0.116258 0.00534066
0.974136 0.116258 0.00534066
0.987594 0.116258 0.00534066
0.999969 0.116258 0.00534066
0.00534066 0.137285 0.00534066
0.0177615 0.137285 0.00534066
0.0426184 0.137285 0.00534066
0.0689555 0.137285 0.00534066
0.0935988 0.137285 0.00534066
0.116258 0.137285 0.00534066
0.137285 0.137285 0.00534066
0.157137 0.137285 0.00534066
0.176242 0.137285 0.00534066
0.19498 0.137285 0.00534066
0.213779 0.137285 0.00534066
0.233143 0.137285 0.00534066
0.253849 0.137285 0.00534066
0.277378 0.137285 0.00534066
0.308171 0.137285 0.00534066
0.370123 0.137285 0.00534066
0.430167 0.137285 0.00534066
0.510918 0.137285 0.00534066
0.598291 0.137285 0.00534066
0.664576 0.137285 0.00534066
0.717678 0.137285 0.00534066
0.761654 0.137285 0.00534066
0.798901 0.137285 0.00534066
0.831006 0.137285 0.00534066
0.859037 0.137285 0.00534066
0.883772 0.137285 0.00534066
0.905776 0.137285 0.00534066
0.92549 0.137285 0.00534066
0.943297 0.137285 0.00534066
0.959426 0.137285 0.00534066
0.974136 0.137285 0.00534066
0.987594 0.137285 0.00534066
0.999969 0.137285 0.00534066
0.00534066 0.157137 0.00534066
0.0177615 0.157137 0.00534066
0.0426184 0.157137 0.00534066
0.0689555 0.157137 0.00534066
0.0935988 0.157137 0.00534066
0.116258 0.157137 0.00534066
0.137285 0.157137 0.00534066
0.157137 0.157137 0.00534066
0.176242 0.157137 0.00534066
0.19498 0.157137 0.00534066
0.213779 0.157137 0.00534066
0.233143 0.157137 0.00534066
0.253849 0.157137 0.00534066
0.277378 0.157137 0.00534066
0.308171 0.157137 0.00534066
0.370123 0.157137 0.00534066
0.430167 0.157137 0.00534066
0.510918 0.157137 0.00534066
0.598291 0.157137 0.00534066
0.664576 0.157137 0.00534066
0.717678 0.157137 0.00534066
0.761654 0.157137 0.00534066
0.798901 0.157137 0.00534066
0.831006 0.157137 0.00534066
0.859037 0.157137 0.00534066
0.883772 0.157137 0.00534066
0.905776 0.157137 0.00534066
0.92549 0.157137 0.00534066
0.943297 0.157137 0.00534066
0.959426 0.157137 0.00534066
0.974136 0.157137 0.00534066
0.987594 0.157137 0.00534066
0.999969 0.157137 0.00534066
0.00534066 0.176242 0.00534066
0.0177615 0.176242 0.00534066
0.0426184 0.176242 0.00534066
0.0689555 0.176242 0.00534066
0.0935988 0.176242 0.00534066
0.116258 0.176242 0.00534066
0.137285 0.176242 0.00534066
0.157137 0.176242 0.00534066
0.176242 0.176242 0.00534066
0.19498 0.176242 0.00534066
0.213779 0.176242 0.00534066
0.233143 0.176242 0.00534066
0.253849 0.176242 0.00534066
0.277378 0.176242 0.00534066
0.308171 0.176242 0.00534066
0.370123 0.176242 0.00534066
0.430167 0.176242 0.00534066
0.510918 0.176242 0.00534066
0.598291 0.176242 0.00534066
0.664576 0.176242 0.00534066
0.717678 0.176242 0.00534066
0.761654 0.176242 0.00534066
0.798901 0.176242 0.00534066
0.831006 0.176242 0.00534066
0.859037 0.176242 0.00534066
0.883772 0.176242 0.00534066
0.905776 0.176242 0.00534066
0.92549 0.176242 0.00534066
0.943297 0.176242 0.00534066
0.959426 0.176242 0.00534066
0.974136 0.176242 0.00534066
0.987594 0.176242 0.00534066
0.999969 0.176242 0.00534066
0.00534066 0.19498 0.00534066
0.0177615 0.19498 0.00534066
0.0426184 0.19498 0.00534066
0.0689555 0.19498 0.00534066
0.0935988 0.19498 0.00534066
0.116258 0.19498 0.00534066
0.137285 0.19498 0.00534066
0.157137 0.19498 0.00534066
0.176242 0.19498 0.00534066
0.19498 0.19498 0.00534066
0.213779 0.19498 0.00534066
0.233143 0.19498 0.00534066
0.253849 0.19498 0.00534066
0.277378 0.19498 0.00534066
0.308171 0.19498 0.00534066
0.370123 0.19498 0.00534066
0.430167 0.19498 0.00534066
0.510918 0.19498 0.00534066
0.598291 0.19498 0.00534066
0.664576 0.19498 0.00534066
0.717678 0.19498 0.00534066
0.761654 0.19498 0.00534066
0.798901 0.19498 0.00534066
0.831006 0.19498 0.00534066
0.859037 0.19498 0.00534066
0.883772 0.19498 0.00534066
0.905776 0.19498 0.00534066
0.92549 0.19498 0.00534066
0.943297 0.19498 0.00534066
0.959426 0.19498 0.00534066
0.974136 0.19498 0.00534066
0.987594 0.19498 0.00534066
0.999969 0.19498 0.00534066
0.00534066 0.213779 0.00534066
0.0177615 0.213779 0.00534066
0.0426184 0.213779 0.00534066
0.0689555 0.213779 0.00534066
0.0935988 0.213779 0.00534066
0.116258 0.213779 0.00534066
0.137285 0.213779 0.00534066
0.157137 0.213779 0.00534066
0.176242 0.213779 0.00534066
0.19498 0.213779 0.00534066
0.213779 0.213779 0.00534066
0.233143 0.213779 0.00534066
0.253849 0.213779 0.00534066
0.277378 0.213779 0.00534066
0.308171 0.213779 0.00534066
0.370123 0.213779 0.00534066
0.430167 0.213779 0.00534066
0.510918 0.213779 0.00534066
0.598291 0.213779 0.00534066
0.664576 0.213779 0.00534066
0.717678 0.213779 0.00534066
0.761654 0.213779 0.00534066
0.798901 0.213779 0.00534066
0.831006 0.213779 0.00534066
0.859037 0.213779 0.00534066
0.883772 0.213779 0.00534066
0.905776 0.213779 0.00534066
0.92549 0.213779 0.00534066
0.943297 0.213779 0.00534066
0.959426 0.213779 0.00534066
0.974136 0.213779 0.00534066
0.987594 0.213779 0.00534066
0.999969 0.213779 0.00534066
0.00534066 0.233143 0.00534066
0.0177615 0.233143 0.00534066
0.0426184 0.233143 0.00534066
0.0689555 0.233143 0.00534066
0.0935988 0.233143 0.00534066
0.116258 0.233143 0.00534066
0.137285 0.233143 0.00534066
0.157137 0.233143 0.00534066
0.176242 0.233143 0.00534066
0.19498 0.233143 0.00534066
0.213779 0.233143 0.00534066
0.233143 0.233143 0.00534066
0.253849 0.233143 0.00534066
0.277378 0.233143 0.00534066
0.308171 0.233143 0.00534066
0.370123 0.233143 0.00534066
0.430167 0.233143 0.00534066
0.510918 0.233143 0.00534066
0.598291 0.233143 0.00534066
0.664576 0.233143 0.00534066
0.717678 0.233143 0.00534066
0.761654 0.233143 0.00534066
0.798901 0.233143 0.00534066
0.831006 0.233143 0.00534066
0.859037 0.233143 0.00534066
0.883772 0.233143 0.00534066
0.905776 0.233143 0.00534066
0.92549 0.233143 0.00534066
0.943297 0.233143 0.00534066
0.959426 0.233143 0.00534066
0.974136 0.233143 0.00534066
0.987594 0.233143 0.00534066
0.999969 0.233143 0.00534066
0.00534066 0.253849 0.00534066
0.0177615 0.253849 0.00534066
0.0426184 0.253849 0.00534066
0.0689555 0.253849 0.00534066
0.0935988 0.253849 0.00534066
0.116258 0.253849 0.00534066
0.137285 0.253849 0.00534066
0.157137 0.253849 0.00534066
0.176242 0.253849 0.00534066
0.19498 0.253849 0.00534066
0.213779 0.253849 0.00534066
0.233143 0.253849 0.00534066
0.253849 0.253849 0.00534066
0.277378 0.253849 0.00534066
0.308171 0.253849 0.00534066
0.370123 0.253849 0.00534066
0.430167 0.253849 0.00534066
0.510918 0.253849 0.00534066
0.598291 0.253849 0.00534066
0.664576 0.253849 0.00534066
0.717678 0.253849 0.00534066
0.761654 0.253849 0.00534066
0.798901 0.253849 0.00534066
0.831006 0.253849 0.00534066
0.859037 0.253849 0.00534066
0.883772 0.253849 0.00534066
0.905776 0.253849 0.00534066
0.92549 0.253849 0.00534066
0.943297 0.253849 0.00534066
0.959426 0.253849 0.00534066
0.974136 0.253849 0.00534066
0.987594 0.253849 0.00534066
0.999969 0.253849 0.00534066
0.00534066 0.277378 0.00534066
0.0177615 0.277378 0.00534066
0.0426184 0.277378 0.00534066
0.0689555 0.277378 0.00534066
0.0935988 0.277378 0.00534066
0.116258 0.277378 0.00534066
0.137285 0.277378 0.00534066
0.157137 0.277378 0.00534066
0.176242 0.277378 0.00534066
0.19498 0.277378 0.00534066
0.213779 0.277378 0.00534066
0.233143 0.277378 0.00534066
0.253849 0.277378 0.00534066
0.277378 0.277378 0.00534066
0.308171 0.277378 0.00534066
0.370123 0.277378 0.00534066
0.430167 0.277378 0.00534066
0.510918 0.277378 0.00534066
0.598291 0.277378 0.00534066
0.664576 0.277378 0.00534066
0.717678 0.277378 0.00534066
0.761654 0.277378 0.00534066
0.798901 0.277378 0.00534066
0.831006 0.277378 0.00534066
0.859037 0.277378 0.00534066
0.883772 0.277378 0.00534066
0.905776 0.277378 0.00534066
0.92549 0.277378 0.00534066
0.943297 0.277378 0.00534066
0.959426 0.277378 0.00534066
0.974136 0.277378 0.00534066
0.987594 0.277378 0.00534066
0.999969 0.277378 0.00534066
0.00534066 0.308171 0.00534066
0.0177615 0.308171 0.00534066
0.0426184 0.308171 0.00534066
0.0689555 0.308171 0.00534066
0.0935988 0.308171 0.00534066
0.116258 0.308171 0.00534066
0.137285 0.308171 0.00534066
0.157137 0.308171 0.00534066
0.176242 0.308171 0.00534066
0.19498 0.308171 0.00534066
0.213779 0.308171 0.00534066
0.233143 0.308171 0.00534066
0.253849 0.308171 0.00534066
0.277378 0.308171 0.00534066
0.308171 0.308171 0.00534066
0.370123 0.308171 0.00534066
0.430167 0.308171 0.00534066
0.510918 0.308171 0.00534066
0.598291 0.308171 0.00534066
0.664576 0.308171 0.00534066
0.717678 0.308171 0.00534066
0.761654 0.308171 0.00534066
0.798901 0.308171 0.00534066
0.831006 0.308171 0.00534066
0.859037 0.308171 0.00534066
0.883772 0.308171 0.00534066
0.905776 0.308171 0.00534066
0.92549 0.308171 0.00534066
0.943297 0.308171 0.00534066
0.959426 0.308171 0.00534066
0.974136 0.308171 0.00534066
0.987594 0.308171 0.00534066
0.999969 0.308171 0.00534066
0.00534066 0.370123 0.00534066
0.0177615 0.370123 0.00534066
0.0426184 0.370123 0.00534066
0.0689555 0.370123 0.00534066
0.0935988 0.370123 0.00534066
0.116258 0.370123 0.00534066
0.137285 0.370123 0.00534066
0.157137 0.370123 0.00534066
0.176242 0.370123 0.00534066
0.19498 0.370123 0.00534066
0.213779 0.370123 0.00534066
0.233143 0.370123 0.00534066
0.253849 0.370123 0.00534066
0.277378 0.370123 0.00534066
0.308171 0.370123 0.00534066
0.370123 0.370123 0.00534066
0.430167 0.370123 0.00534066
0.510918 0.370123 0.00534066
0.598291 0.370123 0.00534066
0.664576 0.370123 0.00534066
0.717678 0.370123 0.00534066
0.761654 0.370123 0.00534066
0.798901 0.370123 0.00534066
0.831006 0.370123 0.00534066
0.859037 0.370123 0.00534066
0.883772 0.370123 0.00534066
0.905776 0.370123 0.00534066
0.92549 0.370123 0.00534066
0.943297 0.370123 0.00534066
0.959426 0.370123 0.00534066
0.974136 0.370123 0.00534066
0.987594 0.370123 0.00534066
0.999969 0.370123 0.00534066
0.00534066 0.430167 0.00534066
0.0177615 0.430167 0.00534066
0.0426184 0.430167 0.00534066
0.0689555 0.430167 0.00534066
0.0935988 0.430167 0.00534066
0.116258 0.430167 0.00534066
0.137285 0.430167 0.00534066
0.157137 0.430167 0.00534066
0.176242 0.430167 0.00534066
0.19498 0.430167 0.00534066
0.213779 0.430167 0.00534066
0.233143 0.430167 0.00534066
0.253849 0.430167 0.00534066
0.277378 0.430167 0.00534066
0.308171 0.430167 0.00534066
0.370123 0.430167 0.00534066
0.430167 0.430167 0.00534066
0.510918 0.430167 0.00534066
0.598291 0.430167 0.00534066
0.664576 0.430167 0.00534066
0.717678 0.430167 0.00534066
0.761654 0.430167 0.00534066
0.798901 0.430167 0.00534066
0.831006 0.430167 0.00534066
0.859037 0.430167 0.00534066
0.883772 0.430167 0.00534066
0.905776 0.430167 0.00534066
0.92549 0.430167 0.00534066
0.943297 0.430167 0.00534066
0.959426 0.430167 0.00534066
0.974136 0.430167 0.00534066
0.987594 0.430167 0.00534066
0.999969 0.430167 0.00534066
0.00534066 0.510918 0.00534066
0.0177615 0.510918 0.00534066
0.0426184 0.510918 0.00534066
0.0689555 0.510918 0.00534066
0.0935988 0.510918 0.00534066
0.116258 0.510918 0.00534066
0.137285 0.510918 0.00534066
0.157137 0.510918 0.00534066
0.176242 0.510918 0.00534066
0.19498 0.510918 0.00534066
0.213779 0.510918 0.00534066
0.233143 0.510918 0.00534066
0.253849 0.510918 0.00534066
0.277378 0.510918 0.00534066
0.308171 0.510918 0.00534066
0.370123 0.510918 0.00534066
0.430167 0.510918 0.00534066
0.510918 0.510918 0.00534066
0.598291 0.510918 0.00534066
0.664576 0.510918 0.00534066
0.717678 0.510918 0.00534066
0.761654 0.510918 0.00534066
0.798901 0.510918 0.00534066
0.831006 0.510918 0.00534066
0.859037 0.510918 0.00534066
0.883772 0.510918 0.00534066
0.905776 0.510918 0.00534066
0.92549 0.510918 0.00534066
0.943297 0.510918 0.00534066
0.959426 0.510918 0.00534066
0.974136 0.510918 0.00534066
0.987594 0.510918 0.00534066
0.999969 0.510918 0.00534066
0.00534066 0.598291 0.00534066
0.0177615 0.598291 0.00534066
0.0426184 0.598291 0.00534066
0.0689555 0.598291 0.00534066
0.0935988 0.598291 0.00534066
0.116258 0.598291 0.00534066
0.137285 0.598291 0.00534066
0.157137 0.598291 0.00534066
0.176242 0.598291 0.00534066
0.19498 0.598291 0.00534066
0.213779 0.598291 0.00534066
0.233143 0.598291 0.00534066
0.253849 0.598291 0.00534066
0.277378 0.598291 0.00534066
0.308171 0.598291 0.00534066
0.370123 0.598291 0.00534066
0.430167 0.598291 0.00534066
0.510918 0.598291 0.00534066
0.598291 0.598291 0.00534066
0.664576 0.598291 0.00534066
0.717678 0.598291 0.00534066
0.761654 0.598291 0.00534066
0.798901 0.598291 0.00534066
0.831006 0.598291 0.00534066
0.859037 0.598291 0.00534066
0.883772 0.598291 0.00534066
0.905776 0.598291 0.00534066
0.92549 0.598291 0.00534066
0.943297 0.598291 0.00534066
0.959426 0.598291 0.00534066
0.974136 0.598291 0.00534066
0.987594 0.598291 0.00534066
0.999969 0.598291 0.00534066
0.00534066 0.664576 0.00534066
0.0177615 0.664576 0.00534066
0.0426184 0.664576 0.00534066
0.0689555 0.664576 0.00534066
0.0935988 0.664576 0.00534066
0.116258 0.664576 0.00534066
0.137285 0.664576 0.00534066
0.157137 0.664576 0.00534066
0.176242 0.664576 0.00534066
0.19498 0.664576 0.00534066
0.213779 0.664576 0.00534066
0.233143 0.664576 0.00534066
0.253849 0.664576 0.00534066
0.277378 0.664576 0.00534066
0.308171 0.664576 0.00534066
0.370123 0.664576 0.00534066
0.430167 0.664576 0.00534066
0.510918 0.664576 0.00534066
0.598291 0.664576 0.00534066
0.664576 0.664576 0.00534066
0.717678 0.664576 0.00534066
0.761654 0.664576 0.00534066
0.798901 0.664576 0.00534066
0.831006 0.664576 0.00534066
0.859037 0.664576 0.00534066
0.883772 0.664576 0.00534066
0.905776 0.664576 0.00534066
0.92549 0.664576 0.00534066
0.943297 0.664576 0.00534066
0.959426 0.664576 0.00534066
0.974136 0.664576 0.00534066
0.987594 0.664576 0.00534066
0.999969 0.664576 0.00534066
0.00534066 0.717678 0.00534066
0.0177615 0.717678 0.00534066
0.0426184 0.717678 0.00534066
0.0689555 0.717678 0.00534066
0.0935988 0.717678 0.00534066
0.116258 0.717678 0.00534066
0.137285 0.717678 0.00534066
0.157137 0.717678 0.00534066
0.176242 0.717678 0.00534066
0.19498 0.717678 0.00534066
0.213779 0.717678 0.00534066
0.233143 0.717678 0.00534066
0.253849 0.717678 0.00534066
0.277378 0.717678 0.00534066
0.308171 0.717678 0.00534066
0.370123 0.717678 0.00534066
0.430167 0.717678 0.00534066
0.510918 0.717678 0.00534066
0.598291 0.717678 0.00534066
0.664576 0.717678 0.00534066
0.717678 0.717678 0.00534066
0.761654 0.717678 0.00534066
0.798901 0.717678 0.00534066
0.831006 0.717678 0.00534066
0.859037 0.717678 0.00534066
0.883772 0.717678 0.00534066
0.905776 0.717678 0.00534066
0.92549 0.717678 0.00534066
0.943297 0.717678 0.00534066
0.959426 0.717678 0.00534066
0.974136 0.717678 0.00534066
0.987594 0.717678 0.00534066
0.999969 0.717678 0.00534066
0.00534066 0.761654 0.00534066
0.0177615 0.761654 0.00534066
0.0426184 0.761654 0.00534066
0.0689555 0.761654 0.00534066
0.0935988 0.761654 0.00534066
0.116258 0.761654 0.00534066
0.137285 0.761654 0.00534066
0.157137 0.761654 0.00534066
0.176242 0.761654 0.00534066
0.19498 0.761654 0.00534066
0.213779 0.761654 0.00534066
0.233143 0.761654 0.00534066
0.253849 0.761654 0.00534066
0.277378 0.761654 0.00534066
0.308171 0.761654 0.00534066
0.370123 0.761654 0.00534066
0.430167 0.761654 0.00534066
0.510918 0.761654 0.00534066
0.598291 0.761654 0.00534066
0.664576 0.761654 0.00534066
0.717678 0.761654 0.00534066
0.761654 0.761654 0.00534066
0.798901 0.761654 0.00534066
0.831006 0.761654 0.00534066
0.859037 0.761654 0.00534066
0.883772 0.761654 0.00534066
0.905776 0.761654 0.00534066
0.92549 0.761654 0.00534066
0.943297 0.761654 0.00534066
0.959426 0.761654 0.00534066
0.974136 0.761654 0.00534066
0.987594 0.761654 0.00534066
0.999969 0.761654 0.00534066
0.00534066 0.798901 0.00534066
0.0177615 0.798901 0.00534066
0.0426184 0.798901 0.00534066
0.0689555 0.798901 0.00534066
0.0935988 0.798901 0.00534066
0.116258 0.798901 0.00534066
0.137285 0.798901 0.00534066
0.157137 0.798901 0.00534066
0.176242 0.798901 0.00534066
0.19498 0.798901 0.00534066
0.213779 0.798901 0.00534066
0.233143 0.798901 0.00534066
0.253849 0.798901 0.00534066
0.277378 0.798901 0.00534066
0.308171 0.798901 0.00534066
0.370123 0.798901 0.00534066
0.430167 0.798901 0.00534066
0.510918 0.798901 0.00534066
0.598291 0.798901 0.00534066
0.664576 0.798901 0.00534066
0.717678 0.798901 0.00534066
0.761654 0.798901 0.00534066
0.798901 0.798901 0.00534066
0.831006 0.798901 0.00534066
0.859037 0.798901 0.00534066
0.883772 0.798901 0.00534066
0.905776 0.798901 0.00534066
0.92549 0.798901 0.00534066
0.943297 0.798901 0.00534066
0.959426 0.798901 0.00534066
0.974136 0.798901 0.00534066
0.987594 0.798901 0.00534066
0.999969 0.798901 0.00534066
0.00534066 0.831006 0.00534066
0.0177615 0.831006 0.00534066
0.0426184 0.831006 0.00534066
0.0689555 0.831006 0.00534066
0.0935988 0.831006 0.00534066
0.116258 0.831006 0.00534066
0.137285 0.831006 0.00534066
0.157137 0.831006 0.00534066
0.176242 0.831006 0.00534066
0.19498 0.831006 0.00534066
0.213779 0.831006 0.00534066
0.233143 0.831006 0.00534066
0.253849 0.831006 0.00534066
0.277378 0.831006 0.00534066
0.308171 0.831006 0.00534066
0.370123 0.831006 0.00534066
0.430167 0.831006 0.00534066
0.510918 0.831006 0.00534066
0.598291 0.831006 0.00534066
0.664576 0.831006 0.00534066
0.717678 0.831006 0.00534066
0.761654 0.831006 0.00534066
0.798901 0.831006 0.00534066
0.831006 0.831006 0.00534066
0.859037 0.831006 0.00534066
0.883772 0.831006 0.00534066
0.905776 0.831006 0.00534066
0.92549 0.831006 0.00534066
0.943297 0.831006 0.00534066
0.959426 0.831006 0.00534066
0.974136 0.831006 0.00534066
0.987594 0.831006 0.00534066
0.999969 0.831006 0.00534066
0.00534066 0.859037 0.00534066
0.0177615 0.859037 0.00534066
0.0426184 0.859037 0.00534066
0.0689555 0.859037 0.00534066
0.0935988 0.859037 0.00534066
0.116258 0.859037 0.00534066
0.137285 0.859037 0.00534066
0.157137 0.859037 0.00534066
0.176242 0.859037 0.00534066
0.19498 0.859037 0.00534066
0.213779 0.859037 0.00534066
0.233143 0.859037 0.00534066
0.253849 0.859037 0.00534066
0.277378 0.859037 0.00534066
0.308171 0.859037 0.00534066
0.370123 0.859037 0.00534066
0.430167 0.859037 0.00534066
0.510918 0.859037 0.00534066
0.598291 0.859037 0.00534066
0.664576 0.859037 0.00534066
0.717678 0.859037 0.00534066
0.761654 0.859037 0.00534066
0.798901 0.859037 0.00534066
0.831006 0.859037 0.00534066
